; generated by PrusaSlicer 2.0.0+ on 2019-08-29 at 04:12:51

; 

; external perimeters extrusion width = 0.45mm
; perimeters extrusion width = 0.45mm
; infill extrusion width = 0.45mm
; solid infill extrusion width = 0.45mm
; top infill extrusion width = 0.40mm
; first layer extrusion width = 0.42mm

M73 P0 R175
M73 Q0 S176
M201 X1000 Y1000 Z1000 E5000 ; sets maximum accelerations, mm/sec^2
M203 X200 Y200 Z12 E120 ; sets maximum feedrates, mm/sec
M204 P1250 R1250 T1250 ; sets acceleration (P, T) and retract acceleration (R), mm/sec^2
M205 X8.00 Y8.00 Z0.40 E1.50 ; sets the jerk limits, mm/sec
M205 S0 T0 ; sets the minimum extruding and travel feed rate, mm/sec
M107
M115 U3.7.2 ; tell printer latest fw version
G90 ; use absolute coordinates
M83 ; extruder relative mode
M104 S230 ; set extruder temp
M140 S85 ; set bed temp
M190 S85 ; wait for bed temp
M109 S230 ; wait for extruder temp
G28 W ; home all without mesh bed level
G80 ; mesh bed leveling
G1 Y-3.0 F1000.0 ; go outside print area
G92 E0.0
G1 X60.0 E9.0 F1000.0 ; intro line
M73 Q0 S176
M73 P0 R175
G1 X100.0 E12.5 F1000.0 ; intro line
G92 E0.0
M221 S95
M900 K45 ; Filament gcode
G21 ; set units to millimeters
G90 ; use absolute coordinates
M83 ; use relative distances for extrusion
;BEFORE_LAYER_CHANGE
G92 E0.0
;0.2


G1 E-0.80000 F2100.00000
G1 Z0.600 F10800.000
;AFTER_LAYER_CHANGE
;0.2
G1 X73.835 Y61.457
G1 Z0.200
G1 E0.80000 F2100.00000
M204 S1000
G1 F1200
G1 X76.926 Y58.067 E0.13521
G1 X80.131 Y54.993 E0.13088
G1 X81.865 Y53.490 E0.06761
G1 X83.649 Y52.048 E0.06762
G1 X87.267 Y49.411 E0.13196
G1 X89.187 Y48.155 E0.06762
G1 X93.052 Y45.895 E0.13196
G1 X95.109 Y44.830 E0.06827
G1 X99.162 Y42.980 E0.13132
G1 X101.315 Y42.127 E0.06826
G1 X105.534 Y40.694 E0.13132
G1 X107.763 Y40.062 E0.06827
G1 X112.104 Y39.062 E0.13131
G1 X114.363 Y38.660 E0.06762
G1 X118.805 Y38.098 E0.13196
G1 X121.093 Y37.926 E0.06762
G1 X125.554 Y37.814 E0.13153
G1 X127.862 Y37.873 E0.06805
G1 X132.327 Y38.212 E0.13196
G1 X134.603 Y38.501 E0.06762
G1 X139.010 Y39.287 E0.13196
G1 X141.351 Y39.832 E0.07084
G1 X145.552 Y41.030 E0.12874
G1 X147.724 Y41.770 E0.06762
G1 X151.851 Y43.408 E0.13088
G1 X153.972 Y44.377 E0.06870
G1 X157.913 Y46.423 E0.13088
G1 X161.852 Y48.817 E0.13586
G1 X165.465 Y51.360 E0.13024
G1 X167.273 Y52.773 E0.06761
G1 X170.658 Y55.704 E0.13197
G1 X172.340 Y57.318 E0.06870
G1 X175.386 Y60.549 E0.13088
G1 X176.875 Y62.294 E0.06761
G1 X178.302 Y64.090 E0.06762
G1 X180.909 Y67.731 E0.13196
G1 X182.182 Y69.717 E0.06955
G1 X184.375 Y73.545 E0.13003
G1 X185.424 Y75.611 E0.06827
G1 X187.239 Y79.679 E0.13131
G1 X188.067 Y81.819 E0.06762
G1 X189.471 Y86.071 E0.13196
G1 X190.589 Y90.407 E0.13197
G1 X191.049 Y92.654 E0.06761
G1 X191.446 Y95.024 E0.07084
G1 X191.956 Y99.363 E0.12874
G1 X192.109 Y101.652 E0.06762
G1 X192.184 Y106.092 E0.13088
G1 X192.106 Y108.422 E0.06870
G1 X191.729 Y112.883 E0.13196
G1 X191.421 Y115.157 E0.06762
G1 X190.605 Y119.522 E0.13088
G1 X189.461 Y123.964 E0.13521
G1 X188.067 Y128.181 E0.13088
G1 X187.225 Y130.354 E0.06870
G1 X185.415 Y134.409 E0.13088
G1 X184.376 Y136.454 E0.06761
G1 X183.267 Y138.463 E0.06762
G1 X180.909 Y142.269 E0.13196
G1 X178.302 Y145.910 E0.13197
G1 X176.875 Y147.706 E0.06761
G1 X175.386 Y149.451 E0.06762
G1 X172.314 Y152.708 E0.13196
G1 X170.641 Y154.310 E0.06827
G1 X167.273 Y157.227 E0.13132
G1 X165.412 Y158.678 E0.06955
G1 X161.803 Y161.215 E0.13003
G1 X159.862 Y162.439 E0.06762
G1 X155.959 Y164.633 E0.13196
G1 X153.905 Y165.655 E0.06762
G1 X149.835 Y167.432 E0.13088
G1 X147.655 Y168.255 E0.06870
G1 X143.427 Y169.613 E0.13088
G1 X138.975 Y170.720 E0.13521
G1 X134.603 Y171.499 E0.13088
G1 X132.327 Y171.788 E0.06761
G1 X127.862 Y172.127 E0.13197
G1 X125.551 Y172.186 E0.06815
G1 X121.093 Y172.074 E0.13143
G1 X118.805 Y171.902 E0.06761
G1 X116.503 Y171.648 E0.06827
G1 X112.105 Y170.939 E0.13131
G1 X109.861 Y170.459 E0.06762
G1 X105.535 Y169.306 E0.13196
G1 X103.351 Y168.603 E0.06762
G1 X99.163 Y167.020 E0.13196
G1 X95.089 Y165.161 E0.13197
G1 X93.053 Y164.105 E0.06761
G1 X91.035 Y162.968 E0.06826
G1 X87.267 Y160.589 E0.13132
G1 X85.339 Y159.229 E0.06955
G1 X81.865 Y156.510 E0.13003
G1 X80.131 Y155.007 E0.06762
G1 X76.926 Y151.933 E0.13088
G1 X75.327 Y150.237 E0.06870
G1 X72.424 Y146.828 E0.13196
G1 X71.027 Y145.009 E0.06762
G1 X68.502 Y141.356 E0.13088
G1 X66.153 Y137.415 E0.13521
G1 X64.140 Y133.457 E0.13088
G1 X63.190 Y131.328 E0.06870
G1 X61.586 Y127.188 E0.13088
G1 X60.865 Y125.010 E0.06761
G1 X60.192 Y122.702 E0.07084
G1 X59.177 Y118.454 E0.12874
G1 X58.756 Y116.198 E0.06762
G1 X58.157 Y111.761 E0.13196
G1 X57.964 Y109.453 E0.06826
G1 X57.816 Y105.000 E0.13132
G1 X57.859 Y102.641 E0.06955
G1 X58.157 Y98.239 E0.13003
G1 X58.430 Y95.939 E0.06826
G1 X59.177 Y91.547 E0.13132
G1 X59.680 Y89.286 E0.06827
G1 X60.865 Y84.991 E0.13132
G1 X61.586 Y82.812 E0.06762
G1 X63.190 Y78.672 E0.13088
G1 X64.140 Y76.543 E0.06870
G1 X66.170 Y72.553 E0.13196
G1 X67.313 Y70.563 E0.06762
G1 X69.714 Y66.827 E0.13088
G1 X71.071 Y64.932 E0.06870
G1 X73.798 Y61.504 E0.12911
G1 F8640
G1 X76.013 Y59.070 E-0.76000
G1 E-0.04000 F2100.00000
G1 Z0.800 F10800.000
G1 X110.314 Y107.030
G1 Z0.200
G1 E0.80000 F2100.00000
G1 F1200
G1 X115.901 Y116.707 E0.32934
G1 X88.904 Y132.294 E0.91880
G1 X83.316 Y122.617 E0.32934
G1 X110.262 Y107.060 E0.91703
G1 X110.176 Y107.545 F10800.000
G1 F1200
G1 X115.386 Y116.569 E0.30711
G1 X89.042 Y131.779 E0.89657
G1 X83.832 Y122.755 E0.30711
G1 X110.124 Y107.575 E0.89480
G1 X110.498 Y107.308 F10800.000
G1 F8640
G1 X111.786 Y110.416 E-0.76000
G1 E-0.04000 F2100.00000
G1 Z0.800 F10800.000
G1 X134.108 Y116.707
G1 Z0.200
G1 E0.80000 F2100.00000
G1 F1200
G1 X139.695 Y107.030 E0.32934
G1 X166.693 Y122.617 E0.91880
G1 X161.106 Y132.294 E0.32934
G1 X134.160 Y116.737 E0.91703
G1 X134.623 Y116.569 F10800.000
G1 F1200
G1 X139.833 Y107.545 E0.30711
G1 X166.178 Y122.755 E0.89657
G1 X160.968 Y131.779 E0.30711
G1 X134.675 Y116.599 E0.89480
G1 X134.257 Y116.408 F10800.000
G1 F8640
G1 X136.304 Y113.739 E-0.76000
G1 E-0.04000 F2100.00000
G1 Z0.800 F10800.000
G1 X130.592 Y91.263
G1 Z0.200
G1 E0.80000 F2100.00000
G1 F1200
G1 X119.418 Y91.263 E0.32934
G1 X119.418 Y60.088 E0.91880
G1 X130.592 Y60.088 E0.32934
G1 X130.592 Y91.203 E0.91703
G1 X130.215 Y90.886 F10800.000
G1 F1200
G1 X119.795 Y90.886 E0.30711
G1 X119.795 Y60.466 E0.89657
G1 X130.215 Y60.466 E0.30711
G1 X130.215 Y90.826 E0.89480
G1 X130.258 Y91.283 F10800.000
G1 F8640
G1 X126.923 Y90.844 E-0.76000
G1 E-0.04000 F2100.00000
G1 Z0.800 F10800.000
G1 X147.638 Y44.704
G1 Z0.200
G1 E0.80000 F2100.00000
G1 F1200
G1 X148.777 Y45.134 E0.03588
G1 X150.775 Y45.967 E0.06378
G1 X152.743 Y46.866 E0.06378
G1 X154.680 Y47.830 E0.06378
G1 X156.584 Y48.860 E0.06378
G1 X158.471 Y49.964 E0.06443
G1 X160.283 Y51.107 E0.06314
G1 X162.073 Y52.322 E0.06378
G1 X163.822 Y53.597 E0.06378
G1 X165.527 Y54.930 E0.06378
G1 X167.186 Y56.320 E0.06378
G1 X168.798 Y57.765 E0.06378
G1 X170.360 Y59.262 E0.06378
G1 X171.871 Y60.812 E0.06378
G1 X173.329 Y62.411 E0.06378
G1 X174.732 Y64.059 E0.06378
G1 X176.079 Y65.752 E0.06378
G1 X177.369 Y67.490 E0.06378
G1 X178.611 Y69.289 E0.06443
G1 X179.769 Y71.091 E0.06314
G1 X180.878 Y72.950 E0.06378
G1 X181.923 Y74.845 E0.06378
G1 X182.904 Y76.774 E0.06378
G1 X183.819 Y78.735 E0.06378
G1 X184.668 Y80.726 E0.06378
G1 X185.450 Y82.744 E0.06378
G1 X186.164 Y84.787 E0.06378
G1 X186.808 Y86.853 E0.06378
G1 X187.383 Y88.939 E0.06378
G1 X187.887 Y91.044 E0.06378
G1 X188.321 Y93.164 E0.06378
G1 X188.683 Y95.298 E0.06378
G1 X188.973 Y97.443 E0.06378
G1 X189.190 Y99.596 E0.06378
G1 X189.336 Y101.755 E0.06378
G1 X189.408 Y103.918 E0.06378
G1 X189.408 Y106.082 E0.06378
G1 X189.336 Y108.245 E0.06378
G1 X189.190 Y110.404 E0.06378
G1 X188.973 Y112.557 E0.06378
G1 X188.683 Y114.702 E0.06378
G1 X188.321 Y116.836 E0.06378
G1 X187.887 Y118.956 E0.06378
G1 X187.383 Y121.061 E0.06378
G1 X186.808 Y123.147 E0.06378
G1 X186.164 Y125.213 E0.06378
G1 X185.442 Y127.277 E0.06443
G1 X184.668 Y129.274 E0.06314
G1 X183.819 Y131.265 E0.06378
G1 X182.904 Y133.226 E0.06378
G1 X181.923 Y135.155 E0.06378
G1 X180.878 Y137.050 E0.06378
G1 X179.769 Y138.909 E0.06378
G1 X178.599 Y140.730 E0.06378
G1 X177.369 Y142.510 E0.06378
G1 X176.066 Y144.265 E0.06443
G1 X174.732 Y145.941 E0.06314
G1 X173.329 Y147.589 E0.06378
G1 X171.871 Y149.188 E0.06378
G1 X170.360 Y150.738 E0.06378
G1 X168.798 Y152.235 E0.06378
G1 X167.186 Y153.680 E0.06378
G1 X165.527 Y155.070 E0.06378
G1 X163.822 Y156.403 E0.06378
G1 X162.073 Y157.678 E0.06378
G1 X160.283 Y158.893 E0.06378
G1 X158.452 Y160.048 E0.06378
G1 X156.584 Y161.140 E0.06378
M73 Q0 S175
G1 X154.680 Y162.170 E0.06378
G1 X152.743 Y163.134 E0.06378
G1 X150.775 Y164.033 E0.06378
G1 X148.757 Y164.873 E0.06443
G1 X146.752 Y165.630 E0.06314
M73 P0 R174
G1 X144.703 Y166.327 E0.06378
G1 X142.632 Y166.954 E0.06378
G1 X140.541 Y167.511 E0.06378
G1 X138.432 Y167.998 E0.06378
G1 X136.308 Y168.413 E0.06378
G1 X134.171 Y168.757 E0.06378
G1 X132.024 Y169.029 E0.06378
G1 X129.870 Y169.229 E0.06378
G1 X127.709 Y169.356 E0.06378
G1 X125.546 Y169.411 E0.06378
G1 X123.382 Y169.392 E0.06378
G1 X121.198 Y169.300 E0.06443
G1 X119.061 Y169.138 E0.06314
G1 X116.910 Y168.902 E0.06378
G1 X114.768 Y168.594 E0.06378
G1 X112.637 Y168.214 E0.06378
G1 X110.521 Y167.763 E0.06378
G1 X108.420 Y167.241 E0.06378
G1 X106.339 Y166.649 E0.06378
G1 X104.278 Y165.987 E0.06378
G1 X102.241 Y165.257 E0.06378
G1 X100.210 Y164.449 E0.06443
G1 X98.247 Y163.592 E0.06314
G1 X96.293 Y162.660 E0.06378
G1 X94.373 Y161.663 E0.06378
G1 X92.468 Y160.591 E0.06443
G1 X90.637 Y159.478 E0.06314
G1 X88.826 Y158.293 E0.06378
G1 X87.056 Y157.047 E0.06378
G1 X85.329 Y155.743 E0.06378
G1 X83.647 Y154.382 E0.06378
G1 X82.011 Y152.964 E0.06378
G1 X80.424 Y151.493 E0.06378
G1 X78.888 Y149.969 E0.06378
G1 X77.403 Y148.395 E0.06378
G1 X75.972 Y146.771 E0.06378
G1 X74.597 Y145.100 E0.06378
G1 X73.265 Y143.367 E0.06443
G1 X72.018 Y141.625 E0.06314
G1 X70.817 Y139.824 E0.06378
G1 X69.678 Y137.984 E0.06378
G1 X68.601 Y136.107 E0.06378
G1 X67.588 Y134.195 E0.06378
G1 X66.639 Y132.249 E0.06378
G1 X65.757 Y130.273 E0.06378
G1 X64.941 Y128.269 E0.06378
G1 X64.194 Y126.238 E0.06378
G1 X63.514 Y124.183 E0.06378
G1 X62.905 Y122.106 E0.06378
G1 X62.365 Y120.011 E0.06378
G1 X61.896 Y117.898 E0.06378
G1 X61.499 Y115.771 E0.06378
G1 X61.173 Y113.631 E0.06378
G1 X60.919 Y111.482 E0.06378
G1 X60.737 Y109.325 E0.06378
G1 X60.628 Y107.164 E0.06378
G1 X60.592 Y105.000 E0.06378
G1 X60.628 Y102.836 E0.06378
G1 X60.739 Y100.653 E0.06443
G1 X60.919 Y98.518 E0.06314
G1 X61.173 Y96.369 E0.06378
G1 X61.499 Y94.230 E0.06378
G1 X61.896 Y92.102 E0.06378
G1 X62.365 Y89.989 E0.06378
G1 X62.905 Y87.894 E0.06378
G1 X63.514 Y85.817 E0.06378
G1 X64.194 Y83.762 E0.06378
G1 X64.941 Y81.731 E0.06378
G1 X65.766 Y79.707 E0.06443
G1 X66.639 Y77.751 E0.06314
G1 X67.588 Y75.805 E0.06378
G1 X68.601 Y73.893 E0.06378
G1 X69.678 Y72.016 E0.06378
G1 X70.817 Y70.176 E0.06378
G1 X72.017 Y68.375 E0.06378
G1 X73.291 Y66.598 E0.06443
G1 X74.596 Y64.900 E0.06314
G1 X75.972 Y63.229 E0.06378
G1 X77.403 Y61.605 E0.06378
G1 X78.888 Y60.031 E0.06378
G1 X80.424 Y58.507 E0.06378
G1 X82.011 Y57.036 E0.06378
G1 X83.647 Y55.618 E0.06378
G1 X85.329 Y54.257 E0.06378
G1 X87.056 Y52.953 E0.06378
G1 X88.826 Y51.707 E0.06378
G1 X90.637 Y50.522 E0.06378
G1 X92.486 Y49.398 E0.06378
G1 X94.373 Y48.337 E0.06378
G1 X96.293 Y47.340 E0.06378
G1 X98.247 Y46.408 E0.06378
G1 X100.230 Y45.542 E0.06378
G1 X102.241 Y44.744 E0.06378
G1 X104.299 Y44.006 E0.06443
G1 X106.339 Y43.351 E0.06314
G1 X108.420 Y42.759 E0.06378
G1 X110.521 Y42.237 E0.06378
G1 X112.637 Y41.786 E0.06378
G1 X114.768 Y41.406 E0.06378
G1 X116.910 Y41.098 E0.06378
G1 X119.061 Y40.862 E0.06378
G1 X121.219 Y40.698 E0.06378
G1 X123.381 Y40.608 E0.06378
G1 X125.567 Y40.590 E0.06443
G1 X127.709 Y40.644 E0.06314
G1 X129.870 Y40.771 E0.06378
G1 X132.024 Y40.971 E0.06378
G1 X134.171 Y41.243 E0.06378
G1 X136.308 Y41.587 E0.06378
G1 X138.432 Y42.002 E0.06378
G1 X140.541 Y42.489 E0.06378
G1 X142.632 Y43.046 E0.06378
G1 X144.703 Y43.673 E0.06378
G1 X146.752 Y44.370 E0.06378
G1 X147.582 Y44.683 E0.02614
G1 X147.715 Y44.330 F10800.000
G1 F1200
G1 X148.916 Y44.784 E0.03783
G1 X150.925 Y45.621 E0.06416
G1 X152.906 Y46.525 E0.06416
G1 X154.854 Y47.496 E0.06416
G1 X156.769 Y48.531 E0.06416
G1 X158.667 Y49.642 E0.06480
G1 X160.489 Y50.791 E0.06352
G1 X162.290 Y52.014 E0.06416
G1 X164.049 Y53.296 E0.06416
G1 X165.764 Y54.637 E0.06416
G1 X167.433 Y56.035 E0.06416
G1 X169.054 Y57.488 E0.06416
G1 X170.625 Y58.995 E0.06416
G1 X172.145 Y60.553 E0.06416
G1 X173.611 Y62.162 E0.06416
G1 X175.023 Y63.819 E0.06416
G1 X176.378 Y65.522 E0.06416
G1 X177.675 Y67.270 E0.06416
G1 X178.925 Y69.080 E0.06480
G1 X180.090 Y70.892 E0.06352
G1 X181.205 Y72.762 E0.06416
G1 X182.256 Y74.668 E0.06416
G1 X183.243 Y76.609 E0.06416
G1 X184.164 Y78.581 E0.06416
G1 X185.018 Y80.584 E0.06416
G1 X185.804 Y82.613 E0.06416
G1 X186.522 Y84.668 E0.06416
G1 X187.170 Y86.747 E0.06416
G1 X187.748 Y88.845 E0.06416
G1 X188.256 Y90.962 E0.06416
G1 X188.691 Y93.095 E0.06416
G1 X189.055 Y95.241 E0.06416
G1 X189.347 Y97.398 E0.06416
G1 X189.566 Y99.564 E0.06416
G1 X189.712 Y101.736 E0.06416
G1 X189.785 Y103.912 E0.06416
G1 X189.785 Y106.088 E0.06416
G1 X189.712 Y108.264 E0.06416
G1 X189.566 Y110.436 E0.06416
G1 X189.347 Y112.602 E0.06416
G1 X189.055 Y114.759 E0.06416
G1 X188.691 Y116.905 E0.06416
G1 X188.256 Y119.038 E0.06416
G1 X187.748 Y121.155 E0.06416
G1 X187.170 Y123.253 E0.06416
G1 X186.522 Y125.331 E0.06416
G1 X185.796 Y127.407 E0.06480
G1 X185.018 Y129.416 E0.06352
G1 X184.164 Y131.419 E0.06416
G1 X183.243 Y133.391 E0.06416
G1 X182.256 Y135.332 E0.06416
G1 X181.205 Y137.238 E0.06416
G1 X180.090 Y139.108 E0.06416
G1 X178.913 Y140.939 E0.06416
G1 X177.676 Y142.729 E0.06416
G1 X176.365 Y144.495 E0.06480
G1 X175.023 Y146.181 E0.06351
G1 X173.611 Y147.838 E0.06416
G1 X172.145 Y149.447 E0.06416
G1 X170.625 Y151.005 E0.06416
G1 X169.054 Y152.512 E0.06416
G1 X167.433 Y153.965 E0.06416
G1 X165.764 Y155.363 E0.06416
G1 X164.049 Y156.704 E0.06416
G1 X162.290 Y157.986 E0.06416
G1 X160.489 Y159.209 E0.06416
G1 X158.648 Y160.370 E0.06416
G1 X156.769 Y161.469 E0.06416
G1 X154.854 Y162.504 E0.06416
G1 X152.906 Y163.475 E0.06416
G1 X150.925 Y164.379 E0.06416
G1 X148.896 Y165.224 E0.06480
G1 X146.880 Y165.985 E0.06352
G1 X144.819 Y166.686 E0.06416
G1 X142.735 Y167.317 E0.06416
G1 X140.632 Y167.877 E0.06416
G1 X138.511 Y168.367 E0.06416
G1 X136.374 Y168.785 E0.06416
G1 X134.225 Y169.130 E0.06416
G1 X132.066 Y169.404 E0.06416
G1 X129.898 Y169.605 E0.06416
G1 X127.725 Y169.733 E0.06416
G1 X125.549 Y169.788 E0.06416
G1 X123.372 Y169.769 E0.06416
G1 X121.175 Y169.676 E0.06480
G1 X119.027 Y169.514 E0.06352
G1 X116.863 Y169.276 E0.06416
G1 X114.708 Y168.967 E0.06416
G1 X112.565 Y168.585 E0.06416
G1 X110.436 Y168.131 E0.06416
G1 X108.323 Y167.606 E0.06416
G1 X106.230 Y167.010 E0.06416
G1 X104.157 Y166.344 E0.06416
G1 X102.108 Y165.609 E0.06416
G1 X100.065 Y164.797 E0.06480
G1 X98.090 Y163.935 E0.06352
G1 X96.125 Y162.998 E0.06416
G1 X94.193 Y161.995 E0.06416
G1 X92.277 Y160.916 E0.06480
G1 X90.436 Y159.797 E0.06352
G1 X88.614 Y158.605 E0.06416
G1 X86.834 Y157.352 E0.06416
G1 X85.097 Y156.040 E0.06416
G1 X83.405 Y154.671 E0.06416
G1 X81.760 Y153.245 E0.06416
G1 X80.163 Y151.765 E0.06416
G1 X78.618 Y150.233 E0.06416
G1 X77.124 Y148.649 E0.06416
G1 X75.685 Y147.016 E0.06416
G1 X74.301 Y145.335 E0.06416
G1 X72.962 Y143.591 E0.06480
G1 X71.707 Y141.839 E0.06352
G1 X70.500 Y140.028 E0.06416
G1 X69.354 Y138.177 E0.06416
G1 X68.271 Y136.289 E0.06416
G1 X67.252 Y134.366 E0.06416
G1 X66.298 Y132.409 E0.06416
G1 X65.410 Y130.421 E0.06416
G1 X64.590 Y128.405 E0.06416
G1 X63.838 Y126.362 E0.06416
G1 X63.154 Y124.295 E0.06416
G1 X62.541 Y122.207 E0.06416
G1 X61.998 Y120.098 E0.06416
G1 X61.527 Y117.973 E0.06416
G1 X61.127 Y115.834 E0.06416
G1 X60.799 Y113.682 E0.06416
G1 X60.543 Y111.520 E0.06416
G1 X60.361 Y109.351 E0.06416
G1 X60.251 Y107.177 E0.06416
G1 X60.215 Y105.000 E0.06416
G1 X60.251 Y102.824 E0.06416
G1 X60.363 Y100.628 E0.06480
