; generated by PrusaSlicer 2.0.0+ on 2019-08-29 at 12:09:31

; 

; external perimeters extrusion width = 0.45mm
; perimeters extrusion width = 0.45mm
; infill extrusion width = 0.45mm
; solid infill extrusion width = 0.45mm
; top infill extrusion width = 0.40mm
; first layer extrusion width = 0.42mm

M73 P0 R79
M73 Q0 S79
M201 X1000 Y1000 Z1000 E5000 ; sets maximum accelerations, mm/sec^2
M203 X200 Y200 Z12 E120 ; sets maximum feedrates, mm/sec
M204 P1250 R1250 T1250 ; sets acceleration (P, T) and retract acceleration (R), mm/sec^2
M205 X8.00 Y8.00 Z0.40 E1.50 ; sets the jerk limits, mm/sec
M205 S0 T0 ; sets the minimum extruding and travel feed rate, mm/sec
M107
M115 U3.7.2 ; tell printer latest fw version
G90 ; use absolute coordinates
M83 ; extruder relative mode
M104 S230 ; set extruder temp
M140 S85 ; set bed temp
M190 S85 ; wait for bed temp
M109 S230 ; wait for extruder temp
G28 W ; home all without mesh bed level
G80 ; mesh bed leveling
G1 Y-3.0 F1000.0 ; go outside print area
G92 E0.0
G1 X60.0 E9.0 F1000.0 ; intro line
M73 Q0 S79
M73 P0 R78
G1 X100.0 E12.5 F1000.0 ; intro line
G92 E0.0
M221 S95
M900 K45 ; Filament gcode
G21 ; set units to millimeters
G90 ; use absolute coordinates
M83 ; use relative distances for extrusion
;BEFORE_LAYER_CHANGE
G92 E0.0
;0.2


G1 E-0.80000 F2100.00000
G1 Z0.600 F10800.000
;AFTER_LAYER_CHANGE
;0.2
G1 X51.573 Y8.880
G1 Z0.200
G1 E0.80000 F2100.00000
M204 S1000
G1 F1200
G1 X52.287 Y9.366 E0.02547
G1 X200.988 Y162.737 E6.29610
G1 X201.338 Y163.363 E0.02113
G1 X201.467 Y164.071 E0.02123
G1 X201.467 Y194.126 E0.88581
G1 X201.409 Y194.604 E0.01419
G1 X201.247 Y195.061 E0.01430
G1 X200.988 Y195.472 E0.01430
G1 X200.648 Y195.812 E0.01419
G1 X199.827 Y196.223 E0.02705
G1 X179.713 Y201.249 E0.61104
G1 X179.117 Y201.287 E0.01761
G1 X178.533 Y201.162 E0.01761
G1 X178.004 Y200.883 E0.01761
G1 X177.570 Y200.472 E0.01761
G1 X48.896 Y32.102 E6.24562
G1 X48.631 Y31.543 E0.01825
G1 X48.533 Y30.931 E0.01825
G1 X48.539 Y10.724 E0.59557
G1 X48.753 Y9.939 E0.02399
G1 X49.239 Y9.286 E0.02399
G1 X49.926 Y8.857 E0.02388
G1 X50.726 Y8.707 E0.02399
G1 X51.514 Y8.868 E0.02370
G1 F8640
G1 X52.287 Y9.366 E-0.21237
G1 X53.938 Y11.069 E-0.54763
G1 E-0.04000 F2100.00000
G1 Z0.800 F10800.000
G1 X51.308 Y12.468
G1 Z0.200
G1 E0.80000 F2100.00000
G1 F1200
G1 X178.692 Y159.324 E5.72968
G1 X178.692 Y164.692 E0.15821
G1 X198.692 Y164.692 E0.58946
G1 X198.692 Y193.517 E0.84959
G1 X178.692 Y193.517 E0.58946
G1 X178.692 Y197.369 E0.11353
G1 X51.308 Y30.697 E6.18276
G1 X51.308 Y12.528 E0.53548
G1 F8640
G1 X53.466 Y15.014 E-0.76000
G1 E-0.04000 F2100.00000
G1 Z0.800 F10800.000
G1 X179.069 Y164.314
G1 Z0.200
G1 E0.80000 F2100.00000
G1 F1200
G1 X199.069 Y164.314 E0.58946
G1 X199.069 Y193.894 E0.87181
G1 X179.069 Y193.894 E0.58946
G1 X179.069 Y198.484 E0.13526
G1 X50.931 Y30.824 E6.21936
M73 Q1 S78
M73 P1 R77
G1 X50.931 Y11.458 E0.57079
G1 X179.069 Y159.183 E5.76360
G1 X179.069 Y164.254 E0.14948
G1 X179.161 Y164.704 F10800.000
G1 X178.579 Y164.190
G1 F1200
G1 X72.086 Y57.697 E4.44399
G1 F8640
G1 X74.414 Y60.025 E-0.76000
G1 E-0.04000 F2100.00000
G1 Z0.800 F10800.000
G1 X70.355 Y55.432
G1 Z0.200
G1 E0.80000 F2100.00000
G1 F1200
G1 X178.579 Y163.656 E4.51622
G1 X178.579 Y163.122 F10800.000
G1 F1200
G1 X68.624 Y53.167 E4.58846
G1 F8640
G1 X70.952 Y55.495 E-0.76000
G1 E-0.04000 F2100.00000
G1 Z0.800 F10800.000
G1 X66.893 Y50.903
G1 Z0.200
G1 E0.80000 F2100.00000
G1 F1200
G1 X178.579 Y162.588 E4.66070
G1 X178.579 Y162.054 F10800.000
G1 F1200
G1 X65.162 Y48.638 E4.73293
G1 F8640
G1 X67.490 Y50.965 E-0.76000
G1 E-0.04000 F2100.00000
G1 Z0.800 F10800.000
G1 X63.431 Y46.373
G1 Z0.200
G1 E0.80000 F2100.00000
G1 F1200
G1 X178.579 Y161.520 E4.80517
G1 X178.579 Y160.986 F10800.000
G1 F1200
G1 X61.700 Y44.108 E4.87741
M73 Q2 S77
M73 P3 R76
G1 F8640
G1 X64.028 Y46.435 E-0.76000
G1 E-0.04000 F2100.00000
G1 Z0.800 F10800.000
G1 X59.969 Y41.843
G1 Z0.200
G1 E0.80000 F2100.00000
G1 F1200
G1 X178.579 Y160.452 E4.94964
G1 X178.579 Y159.918 F10800.000
G1 F1200
G1 X58.238 Y39.578 E5.02188
G1 F8640
G1 X60.566 Y41.905 E-0.76000
G1 E-0.04000 F2100.00000
G1 Z0.800 F10800.000
G1 X56.507 Y37.313
G1 Z0.200
G1 E0.80000 F2100.00000
G1 F1200
G1 X178.579 Y159.384 E5.09412
G1 F8640
G1 X176.251 Y157.057 E-0.76000
G1 E-0.04000 F2100.00000
G1 Z0.800 F10800.000
G1 X175.208 Y155.479
G1 Z0.200
G1 E0.80000 F2100.00000
G1 F1200
G1 X54.776 Y35.048 E5.02568
G1 F8640
G1 X57.104 Y37.375 E-0.76000
G1 E-0.04000 F2100.00000
G1 Z0.800 F10800.000
G1 X53.045 Y32.783
G1 Z0.200
G1 E0.80000 F2100.00000
G1 F1200
G1 X171.715 Y151.453 E4.95216
G1 F8640
G1 X169.387 Y149.125 E-0.76000
G1 E-0.04000 F2100.00000
G1 Z0.800 F10800.000
G1 X168.222 Y147.426
G1 Z0.200
G1 E0.80000 F2100.00000
G1 F1200
G1 X51.421 Y30.626 E4.87416
G1 F8640
G1 X53.749 Y32.953 E-0.76000
G1 E-0.04000 F2100.00000
G1 Z0.800 F10800.000
G1 X59.946 Y22.600
G1 Z0.200
G1 E0.80000 F2100.00000
G1 F1200
G1 X51.591 Y14.244 E0.34867
G1 X51.591 Y13.710 E0.01575
G1 X56.454 Y18.573 E0.20292
G1 F8640
G1 X54.126 Y16.245 E-0.76000
G1 E-0.04000 F2100.00000
G1 Z0.800 F10800.000
G1 X63.439 Y26.626
G1 Z0.200
G1 E0.80000 F2100.00000
G1 F1200
G1 X51.591 Y14.778 E0.49443
G1 X51.591 Y15.312 E0.01575
G1 X66.932 Y30.653 E0.64018
G1 F8640
G1 X64.605 Y28.325 E-0.76000
G1 E-0.04000 F2100.00000
G1 Z0.800 F10800.000
G1 X70.425 Y34.680
G1 Z0.200
G1 E0.80000 F2100.00000
G1 F1200
G1 X51.591 Y15.846 E0.78594
G1 X51.591 Y16.380 E0.01575
G1 X73.917 Y38.706 E0.93169
M73 Q4 S76
M73 P4 R75
G1 F8640
G1 X71.590 Y36.379 E-0.76000
G1 E-0.04000 F2100.00000
G1 Z0.800 F10800.000
G1 X77.410 Y42.733
G1 Z0.200
G1 E0.80000 F2100.00000
G1 F1200
G1 X51.591 Y16.914 E1.07745
G1 X51.591 Y17.448 E0.01575
G1 X80.903 Y46.760 E1.22320
G1 F8640
G1 X78.576 Y44.432 E-0.76000
G1 E-0.04000 F2100.00000
G1 Z0.800 F10800.000
G1 X84.396 Y50.786
G1 Z0.200
G1 E0.80000 F2100.00000
G1 F1200
G1 X51.591 Y17.982 E1.36896
G1 X51.591 Y18.515 E0.01575
G1 X87.889 Y54.813 E1.51471
G1 F8640
G1 X85.561 Y52.485 E-0.76000
G1 E-0.04000 F2100.00000
G1 Z0.800 F10800.000
G1 X91.381 Y58.840
G1 Z0.200
G1 E0.80000 F2100.00000
G1 F1200
G1 X51.591 Y19.049 E1.66047
G1 X51.591 Y19.583 E0.01575
G1 X94.874 Y62.866 E1.80622
G1 F8640
G1 X92.547 Y60.539 E-0.76000
G1 E-0.04000 F2100.00000
G1 Z0.800 F10800.000
G1 X98.367 Y66.893
G1 Z0.200
G1 E0.80000 F2100.00000
G1 F1200
G1 X51.591 Y20.117 E1.95198
G1 X51.591 Y20.651 E0.01575
G1 X101.860 Y70.920 E2.09773
G1 F8640
G1 X99.532 Y68.592 E-0.76000
G1 E-0.04000 F2100.00000
G1 Z0.800 F10800.000
G1 X105.352 Y74.946
G1 Z0.200
G1 E0.80000 F2100.00000
G1 F1200
G1 X51.591 Y21.185 E2.24349
G1 X51.591 Y21.719 E0.01575
G1 X108.845 Y78.973 E2.38924
G1 F8640
G1 X106.518 Y76.645 E-0.76000
G1 E-0.04000 F2100.00000
G1 Z0.800 F10800.000
G1 X112.338 Y82.999
G1 Z0.200
G1 E0.80000 F2100.00000
G1 F1200
G1 X51.591 Y22.253 E2.53500
G1 X51.591 Y22.787 E0.01575
G1 X115.831 Y87.026 E2.68075
G1 F8640
G1 X113.503 Y84.699 E-0.76000
G1 E-0.04000 F2100.00000
G1 Z0.800 F10800.000
G1 X119.323 Y91.053
G1 Z0.200
G1 E0.80000 F2100.00000
G1 F1200
G1 X51.591 Y23.321 E2.82651
G1 X51.591 Y23.854 E0.01575
G1 X122.816 Y95.079 E2.97226
G1 F8640
G1 X120.489 Y92.752 E-0.76000
G1 E-0.04000 F2100.00000
G1 Z0.800 F10800.000
G1 X126.309 Y99.106
G1 Z0.200
G1 E0.80000 F2100.00000
G1 F1200
G1 X51.591 Y24.388 E3.11802
G1 X51.591 Y24.922 E0.01575
G1 X129.802 Y103.133 E3.26377
M73 Q5 S74
M73 P5 R74
G1 F8640
G1 X127.474 Y100.805 E-0.76000
G1 E-0.04000 F2100.00000
G1 Z0.800 F10800.000
G1 X133.294 Y107.159
G1 Z0.200
G1 E0.80000 F2100.00000
G1 F1200
G1 X51.591 Y25.456 E3.40953
G1 X51.591 Y25.990 E0.01575
G1 X136.787 Y111.186 E3.55529
G1 F8640
G1 X134.460 Y108.859 E-0.76000
G1 E-0.04000 F2100.00000
G1 Z0.800 F10800.000
G1 X140.280 Y115.213
G1 Z0.200
G1 E0.80000 F2100.00000
G1 F1200
G1 X51.591 Y26.524 E3.70104
G1 X51.591 Y27.058 E0.01575
G1 X143.773 Y119.239 E3.84680
G1 F8640
G1 X141.445 Y116.912 E-0.76000
G1 E-0.04000 F2100.00000
G1 Z0.800 F10800.000
G1 X147.265 Y123.266
G1 Z0.200
G1 E0.80000 F2100.00000
G1 F1200
G1 X51.591 Y27.592 E3.99255
G1 X51.591 Y28.126 E0.01575
G1 X150.758 Y127.293 E4.13831
G1 F8640
G1 X148.431 Y124.965 E-0.76000
G1 E-0.04000 F2100.00000
G1 Z0.800 F10800.000
G1 X154.251 Y131.319
G1 Z0.200
G1 E0.80000 F2100.00000
G1 F1200
G1 X51.591 Y28.660 E4.28406
G1 X51.591 Y29.194 E0.01575
G1 X157.744 Y135.346 E4.42982
G1 F8640
G1 X155.416 Y133.019 E-0.76000
G1 E-0.04000 F2100.00000
G1 Z0.800 F10800.000
G1 X161.236 Y139.373
G1 Z0.200
G1 E0.80000 F2100.00000
G1 F1200
G1 X51.591 Y29.727 E4.57557
M73 Q6 S73
M73 P6 R73
G1 X51.591 Y30.261 E0.01575
G1 X164.729 Y143.399 E4.72133
G1 F8640
G1 X162.402 Y141.072 E-0.76000
G1 E-0.04000 F2100.00000
G1 Z0.800 F10800.000
G1 X148.251 Y157.354
G1 Z0.200
G1 E0.80000 F2100.00000
G1 F1200
G1 X184.302 Y193.404 E1.50440
G1 X184.835 Y193.404 F10800.000
G1 F1200
G1 X146.520 Y155.089 E1.59892
G1 F8640
G1 X148.848 Y157.416 E-0.76000
G1 E-0.04000 F2100.00000
G1 Z0.800 F10800.000
G1 X144.789 Y152.824
G1 Z0.200
G1 E0.80000 F2100.00000
G1 F1200
G1 X185.369 Y193.404 E1.69343
G1 X185.903 Y193.404 F10800.000
G1 F1200
G1 X143.058 Y150.559 E1.78795
G1 F8640
G1 X145.386 Y152.887 E-0.76000
G1 E-0.04000 F2100.00000
G1 Z0.800 F10800.000
G1 X141.327 Y148.294
G1 Z0.200
G1 E0.80000 F2100.00000
G1 F1200
G1 X186.437 Y193.404 E1.88247
G1 X186.971 Y193.404 F10800.000
G1 F1200
G1 X139.596 Y146.029 E1.97698
G1 F8640
G1 X141.924 Y148.357 E-0.76000
G1 E-0.04000 F2100.00000
G1 Z0.800 F10800.000
G1 X137.865 Y143.764
G1 Z0.200
G1 E0.80000 F2100.00000
G1 F1200
G1 X187.505 Y193.404 E2.07150
G1 X188.039 Y193.404 F10800.000
G1 F1200
G1 X136.134 Y141.500 E2.16602
G1 F8640
G1 X138.462 Y143.827 E-0.76000
G1 E-0.04000 F2100.00000
G1 Z0.800 F10800.000
G1 X134.403 Y139.235
G1 Z0.200
G1 E0.80000 F2100.00000
G1 F1200
G1 X188.573 Y193.404 E2.26053
G1 X189.107 Y193.404 F10800.000
G1 F1200
G1 X132.672 Y136.970 E2.35505
G1 F8640
G1 X134.999 Y139.297 E-0.76000
G1 E-0.04000 F2100.00000
G1 Z0.800 F10800.000
G1 X130.941 Y134.705
G1 Z0.200
G1 E0.80000 F2100.00000
G1 F1200
G1 X189.641 Y193.404 E2.44957
G1 X190.174 Y193.404 F10800.000
G1 F1200
G1 X129.210 Y132.440 E2.54408
G1 F8640
G1 X131.537 Y134.767 E-0.76000
G1 E-0.04000 F2100.00000
G1 Z0.800 F10800.000
G1 X127.479 Y130.175
G1 Z0.200
G1 E0.80000 F2100.00000
G1 F1200
G1 X190.708 Y193.404 E2.63860
G1 X191.242 Y193.404 F10800.000
G1 F1200
G1 X125.748 Y127.910 E2.73312
M73 Q8 S72
M73 P8 R72
G1 F8640
G1 X128.075 Y130.237 E-0.76000
G1 E-0.04000 F2100.00000
G1 Z0.800 F10800.000
G1 X124.017 Y125.645
G1 Z0.200
G1 E0.80000 F2100.00000
G1 F1200
G1 X191.776 Y193.404 E2.82763
G1 X192.310 Y193.404 F10800.000
G1 F1200
G1 X122.286 Y123.380 E2.92215
G1 F8640
G1 X124.613 Y125.708 E-0.76000
G1 E-0.04000 F2100.00000
G1 Z0.800 F10800.000
G1 X120.555 Y121.115
G1 Z0.200
G1 E0.80000 F2100.00000
G1 F1200
G1 X192.844 Y193.404 E3.01667
G1 X193.378 Y193.404 F10800.000
G1 F1200
G1 X118.824 Y118.850 E3.11118
G1 F8640
G1 X121.151 Y121.178 E-0.76000
G1 E-0.04000 F2100.00000
G1 Z0.800 F10800.000
G1 X117.093 Y116.585
G1 Z0.200
G1 E0.80000 F2100.00000
G1 F1200
G1 X193.912 Y193.404 E3.20570
G1 X194.446 Y193.404 F10800.000
G1 F1200
G1 X115.362 Y114.320 E3.30022
G1 F8640
G1 X117.689 Y116.648 E-0.76000
G1 E-0.04000 F2100.00000
G1 Z0.800 F10800.000
G1 X113.631 Y112.056
G1 Z0.200
G1 E0.80000 F2100.00000
G1 F1200
G1 X194.980 Y193.404 E3.39473
G1 X195.514 Y193.404 F10800.000
G1 F1200
G1 X111.900 Y109.791 E3.48925
G1 F8640
G1 X114.227 Y112.118 E-0.76000
G1 E-0.04000 F2100.00000
G1 Z0.800 F10800.000
G1 X110.169 Y107.526
G1 Z0.200
G1 E0.80000 F2100.00000
G1 F1200
G1 X196.047 Y193.404 E3.58377
G1 X196.581 Y193.404 F10800.000
G1 F1200
G1 X108.438 Y105.261 E3.67828
G1 F8640
G1 X110.765 Y107.588 E-0.76000
G1 E-0.04000 F2100.00000
G1 Z0.800 F10800.000
G1 X106.707 Y102.996
G1 Z0.200
G1 E0.80000 F2100.00000
G1 F1200
G1 X197.115 Y193.404 E3.77280
M73 Q9 S71
M73 P9 R71
G1 X197.649 Y193.404 F10800.000
G1 F1200
G1 X104.976 Y100.731 E3.86732
G1 F8640
G1 X107.303 Y103.058 E-0.76000
G1 E-0.04000 F2100.00000
G1 Z0.800 F10800.000
G1 X103.245 Y98.466
G1 Z0.200
G1 E0.80000 F2100.00000
G1 F1200
G1 X198.183 Y193.404 E3.96183
G1 X198.579 Y193.266 F10800.000
G1 F1200
G1 X101.514 Y96.201 E4.05058
G1 F8640
G1 X103.841 Y98.528 E-0.76000
G1 E-0.04000 F2100.00000
G1 Z0.800 F10800.000
G1 X99.783 Y93.936
G1 Z0.200
G1 E0.80000 F2100.00000
G1 F1200
G1 X198.579 Y192.732 E4.12281
G1 X198.579 Y192.198 F10800.000
G1 F1200
G1 X98.052 Y91.671 E4.19505
G1 F8640
G1 X100.379 Y93.999 E-0.76000
G1 E-0.04000 F2100.00000
G1 Z0.800 F10800.000
G1 X96.321 Y89.406
G1 Z0.200
G1 E0.80000 F2100.00000
G1 F1200
G1 X198.579 Y191.664 E4.26729
G1 X198.579 Y191.130 F10800.000
G1 F1200
G1 X94.590 Y87.141 E4.33952
G1 F8640
G1 X96.917 Y89.469 E-0.76000
G1 E-0.04000 F2100.00000
G1 Z0.800 F10800.000
G1 X92.859 Y84.876
G1 Z0.200
G1 E0.80000 F2100.00000
G1 F1200
G1 X198.579 Y190.596 E4.41176
G1 X198.579 Y190.062 F10800.000
G1 F1200
G1 X91.128 Y82.611 E4.48400
M73 Q11 S70
M73 P11 R70
G1 F8640
G1 X93.455 Y84.939 E-0.76000
G1 E-0.04000 F2100.00000
G1 Z0.800 F10800.000
G1 X89.397 Y80.347
G1 Z0.200
G1 E0.80000 F2100.00000
G1 F1200
G1 X198.579 Y189.529 E4.55623
G1 X198.579 Y188.995 F10800.000
G1 F1200
G1 X87.666 Y78.082 E4.62847
G1 F8640
G1 X89.993 Y80.409 E-0.76000
G1 E-0.04000 F2100.00000
G1 Z0.800 F10800.000
G1 X85.935 Y75.817
G1 Z0.200
G1 E0.80000 F2100.00000
G1 F1200
G1 X198.579 Y188.461 E4.70071
G1 X198.579 Y187.927 F10800.000
G1 F1200
G1 X84.204 Y73.552 E4.77294
G1 F8640
G1 X86.531 Y75.879 E-0.76000
G1 E-0.04000 F2100.00000
G1 Z0.800 F10800.000
G1 X82.472 Y71.287
G1 Z0.200
G1 E0.80000 F2100.00000
G1 F1200
G1 X198.579 Y187.393 E4.84518
G1 X198.579 Y186.859 F10800.000
G1 F1200
G1 X80.741 Y69.022 E4.91742
G1 F8640
G1 X83.069 Y71.349 E-0.76000
G1 E-0.04000 F2100.00000
G1 Z0.800 F10800.000
G1 X79.010 Y66.757
G1 Z0.200
G1 E0.80000 F2100.00000
G1 F1200
G1 X198.579 Y186.325 E4.98965
G1 X198.579 Y185.791 F10800.000
G1 F1200
G1 X77.279 Y64.492 E5.06189
M73 Q12 S69
M73 P12 R69
G1 F8640
G1 X79.607 Y66.819 E-0.76000
G1 E-0.04000 F2100.00000
G1 Z0.800 F10800.000
G1 X75.548 Y62.227
G1 Z0.200
G1 E0.80000 F2100.00000
G1 F1200
G1 X198.579 Y185.257 E5.13413
G1 F8640
G1 X196.251 Y182.930 E-0.76000
G1 E-0.04000 F2100.00000
G1 Z0.800 F10800.000
G1 X183.768 Y193.404
G1 Z0.200
G1 E0.80000 F2100.00000
G1 F1200
G1 X149.982 Y159.619 E1.40988
G1 F8640
G1 X152.310 Y161.946 E-0.76000
G1 E-0.04000 F2100.00000
G1 Z0.800 F10800.000
G1 X151.713 Y161.884
G1 Z0.200
G1 E0.80000 F2100.00000
G1 F1200
G1 X183.234 Y193.404 E1.31537
G1 X182.700 Y193.404 F10800.000
G1 F1200
G1 X153.444 Y164.149 E1.22085
G1 F8640
G1 X155.772 Y166.476 E-0.76000
G1 E-0.04000 F2100.00000
G1 Z0.800 F10800.000
G1 X155.175 Y166.414
G1 Z0.200
G1 E0.80000 F2100.00000
G1 F1200
G1 X182.166 Y193.404 E1.12633
G1 X181.632 Y193.404 F10800.000
G1 F1200
G1 X156.906 Y168.679 E1.03182
G1 F8640
G1 X159.234 Y171.006 E-0.76000
G1 E-0.04000 F2100.00000
G1 Z0.800 F10800.000
G1 X158.637 Y170.944
G1 Z0.200
G1 E0.80000 F2100.00000
G1 F1200
G1 X181.098 Y193.404 E0.93730
G1 X180.564 Y193.404 F10800.000
G1 F1200
G1 X160.368 Y173.208 E0.84278
G1 F8640
G1 X162.696 Y175.536 E-0.76000
G1 E-0.04000 F2100.00000
G1 Z0.800 F10800.000
G1 X162.099 Y175.473
G1 Z0.200
G1 E0.80000 F2100.00000
G1 F1200
G1 X180.030 Y193.404 E0.74827
G1 X179.496 Y193.404 F10800.000
G1 F1200
G1 X163.830 Y177.738 E0.65375
G1 F8640
G1 X166.158 Y180.066 E-0.76000
G1 E-0.04000 F2100.00000
G1 Z0.800 F10800.000
G1 X165.562 Y180.003
G1 Z0.200
G1 E0.80000 F2100.00000
G1 F1200
G1 X178.963 Y193.404 E0.55923
G1 X178.579 Y193.554 F10800.000
G1 F1200
G1 X167.293 Y182.268 E0.47097
G1 F8640
G1 X169.620 Y184.596 E-0.76000
G1 E-0.04000 F2100.00000
G1 Z0.800 F10800.000
G1 X169.024 Y184.533
G1 Z0.200
G1 E0.80000 F2100.00000
G1 F1200
G1 X178.579 Y194.088 E0.39874
G1 X178.579 Y194.622 F10800.000
G1 F1200
G1 X170.755 Y186.798 E0.32650
G1 F8640
G1 X173.082 Y189.125 E-0.76000
G1 E-0.04000 F2100.00000
G1 Z0.800 F10800.000
G1 X172.486 Y189.063
G1 Z0.200
G1 E0.80000 F2100.00000
G1 F1200
G1 X178.579 Y195.156 E0.25426
G1 X178.579 Y195.690 F10800.000
G1 F1200
G1 X174.217 Y191.328 E0.18203
G1 F8640
