; generated by PrusaSlicer 2.0.0+ on 2019-09-02 at 13:15:04

; 

; external perimeters extrusion width = 0.45mm
; perimeters extrusion width = 0.45mm
; infill extrusion width = 0.45mm
; solid infill extrusion width = 0.45mm
; top infill extrusion width = 0.40mm
; first layer extrusion width = 0.42mm

M73 P0 R140
M73 Q0 S141
M201 X1000 Y1000 Z1000 E5000 ; sets maximum accelerations, mm/sec^2
M203 X200 Y200 Z12 E120 ; sets maximum feedrates, mm/sec
M204 P1250 R1250 T1250 ; sets acceleration (P, T) and retract acceleration (R), mm/sec^2
M205 X8.00 Y8.00 Z0.40 E1.50 ; sets the jerk limits, mm/sec
M205 S0 T0 ; sets the minimum extruding and travel feed rate, mm/sec
M107
M115 U3.7.2 ; tell printer latest fw version
G90 ; use absolute coordinates
M83 ; extruder relative mode
M104 S230 ; set extruder temp
M140 S85 ; set bed temp
M190 S85 ; wait for bed temp
M109 S230 ; wait for extruder temp
G28 W ; home all without mesh bed level
G80 ; mesh bed leveling
G1 Y-3.0 F1000.0 ; go outside print area
G92 E0.0
G1 X60.0 E9.0 F1000.0 ; intro line
M73 Q0 S141
M73 P0 R140
G1 X100.0 E12.5 F1000.0 ; intro line
G92 E0.0
M221 S95
M900 K45 ; Filament gcode
G21 ; set units to millimeters
G90 ; use absolute coordinates
M83 ; use relative distances for extrusion
;BEFORE_LAYER_CHANGE
G92 E0.0
;0.2


G1 E-0.80000 F2100.00000
G1 Z0.600 F10800.000
;AFTER_LAYER_CHANGE
;0.2
G1 X80.758 Y68.798
G1 Z0.200
G1 E0.80000 F2100.00000
M204 S1000
G1 F1200
G1 X82.717 Y66.500 E0.08900
G1 X84.085 Y65.048 E0.05880
G1 X86.805 Y62.440 E0.11108
G1 X88.285 Y61.157 E0.05771
G1 X89.881 Y59.870 E0.06044
G1 X92.883 Y57.684 E0.10943
G1 X94.538 Y56.603 E0.05826
G1 X97.807 Y54.692 E0.11161
G1 X99.596 Y53.767 E0.05935
G1 X103.008 Y52.211 E0.11052
G1 X104.915 Y51.458 E0.06044
G1 X108.431 Y50.265 E0.10943
G1 X110.369 Y49.717 E0.05935
G1 X114.023 Y48.875 E0.11052
G1 X115.970 Y48.530 E0.05826
G1 X119.727 Y48.055 E0.11161
G1 X121.680 Y47.908 E0.05772
G1 X125.469 Y47.813 E0.11173
G1 X127.442 Y47.864 E0.05815
G1 X131.236 Y48.152 E0.11216
G1 X133.197 Y48.402 E0.05826
G1 X136.925 Y49.068 E0.11161
G1 X138.833 Y49.509 E0.05772
G1 X142.493 Y50.551 E0.11216
G1 X144.347 Y51.182 E0.05772
G1 X147.850 Y52.573 E0.11108
G1 X149.664 Y53.402 E0.05879
G1 X153.013 Y55.140 E0.11119
G1 X156.432 Y57.224 E0.11802
G1 X159.441 Y59.343 E0.10846
G1 X160.984 Y60.548 E0.05771
G1 X163.858 Y63.038 E0.11206
G1 X165.298 Y64.418 E0.05880
G1 X167.883 Y67.160 E0.11108
G1 X169.154 Y68.650 E0.05771
G1 X170.427 Y70.258 E0.06044
G1 X172.588 Y73.278 E0.10943
G1 X173.655 Y74.941 E0.05826
G1 X175.538 Y78.227 E0.11161
G1 X176.425 Y79.973 E0.05772
G1 X177.976 Y83.448 E0.11216
G1 X178.689 Y85.292 E0.05826
G1 X179.876 Y88.888 E0.11161
G1 X180.408 Y90.830 E0.05935
G1 X181.219 Y94.491 E0.11052
G1 X181.558 Y96.514 E0.06044
G1 X181.991 Y100.202 E0.10943
G1 X182.121 Y102.156 E0.05772
G1 X182.185 Y105.924 E0.11108
G1 X182.118 Y107.918 E0.05880
G1 X181.801 Y111.673 E0.11108
G1 X181.208 Y115.563 E0.11595
G1 X180.395 Y119.224 E0.11053
G1 X179.875 Y121.115 E0.05782
G1 X178.683 Y124.726 E0.11206
G1 X177.962 Y126.586 E0.05880
G1 X176.425 Y130.027 E0.11108
G1 X175.539 Y131.773 E0.05771
G1 X173.646 Y135.074 E0.11217
G1 X172.588 Y136.722 E0.05771
G1 X171.463 Y138.347 E0.05826
G1 X169.154 Y141.349 E0.11161
G1 X167.821 Y142.908 E0.06044
G1 X165.272 Y145.608 E0.10943
G1 X162.482 Y148.196 E0.11217
G1 X160.982 Y149.454 E0.05771
G1 X159.438 Y150.659 E0.05772
G1 X156.326 Y152.849 E0.11216
G1 X154.653 Y153.902 E0.05826
G1 X151.352 Y155.758 E0.11161
G1 X149.598 Y156.630 E0.05772
G1 X146.144 Y158.137 E0.11108
G1 X144.278 Y158.842 E0.05880
G1 X140.690 Y159.995 E0.11108
G1 X136.889 Y160.940 E0.11541
G1 X133.179 Y161.601 E0.11108
G1 X131.237 Y161.848 E0.05771
G1 X127.442 Y162.136 E0.11217
G1 X125.466 Y162.187 E0.05825
G1 X121.680 Y162.092 E0.11163
G1 X119.727 Y161.945 E0.05771
G1 X117.781 Y161.730 E0.05772
G1 X114.024 Y161.125 E0.11216
G1 X112.019 Y160.693 E0.06044
G1 X108.432 Y159.735 E0.10943
G1 X106.515 Y159.116 E0.05935
G1 X103.008 Y157.789 E0.11052
G1 X101.164 Y156.981 E0.05935
G1 X97.808 Y155.308 E0.11052
G1 X96.022 Y154.299 E0.06044
G1 X92.883 Y152.316 E0.10943
G1 X91.267 Y151.177 E0.05826
G1 X88.285 Y148.843 E0.11161
G1 X86.805 Y147.560 E0.05772
G1 X84.085 Y144.952 E0.11108
G1 X82.717 Y143.500 E0.05880
G1 X80.272 Y140.631 E0.11108
G1 X77.939 Y137.487 E0.11541
G1 X75.901 Y134.316 E0.11108
G1 X74.926 Y132.618 E0.05771
G1 X73.201 Y129.226 E0.11217
G1 X72.387 Y127.405 E0.05880
G1 X71.026 Y123.890 E0.11108
G1 X70.410 Y122.032 E0.05771
G1 X69.859 Y120.152 E0.05772
G1 X68.974 Y116.451 E0.11216
G1 X68.615 Y114.526 E0.05772
G1 X68.106 Y110.755 E0.11216
G1 X67.942 Y108.803 E0.05772
G1 X67.815 Y105.000 E0.11216
G1 X67.849 Y103.042 E0.05772
G1 X68.106 Y99.245 E0.11216
G1 X68.350 Y97.209 E0.06044
G1 X68.974 Y93.549 E0.10943
G1 X69.399 Y91.637 E0.05772
G1 X70.410 Y87.969 E0.11216
G1 X71.026 Y86.110 E0.05772
G1 X72.387 Y82.595 E0.11108
G1 X73.201 Y80.774 E0.05880
G1 X74.926 Y77.382 E0.11216
G1 X75.901 Y75.684 E0.05772
G1 X77.939 Y72.513 E0.11108
G1 X80.272 Y69.369 E0.11541
G1 X80.719 Y68.844 E0.02031
G1 F8640
G1 X82.717 Y66.500 E-0.71111
G1 X82.862 Y66.346 E-0.04889
G1 E-0.04000 F2100.00000
G1 Z0.800 F10800.000
G1 X110.312 Y107.029
G1 Z0.200
G1 E0.80000 F2100.00000
G1 F1200
G1 X115.900 Y116.706 E0.32934
G1 X88.902 Y132.293 E0.91880
G1 X83.315 Y122.616 E0.32934
G1 X110.260 Y107.059 E0.91703
G1 X110.174 Y107.544 F10800.000
G1 F1200
G1 X115.384 Y116.568 E0.30711
G1 X89.040 Y131.778 E0.89657
G1 X83.830 Y122.754 E0.30711
G1 X110.122 Y107.574 E0.89480
G1 X110.497 Y107.307 F10800.000
G1 F8640
G1 X111.785 Y110.415 E-0.76000
G1 E-0.04000 F2100.00000
G1 Z0.800 F10800.000
G1 X111.847 Y102.472
G1 Z0.200
G1 E0.80000 F2100.00000
G1 F1200
G1 X111.326 Y102.252 E0.01665
G1 X110.837 Y101.969 E0.01665
G1 X110.386 Y101.629 E0.01665
G1 X109.981 Y101.236 E0.01665
G1 X109.627 Y100.796 E0.01665
G1 X109.329 Y100.315 E0.01665
G1 X109.093 Y99.802 E0.01665
G1 X108.922 Y99.264 E0.01665
G1 X108.818 Y98.709 E0.01665
G1 X108.783 Y98.145 E0.01665
G1 X108.818 Y97.581 E0.01665
G1 X108.921 Y97.031 E0.01649
G1 X109.093 Y96.488 E0.01679
G1 X109.329 Y95.974 E0.01666
G1 X109.624 Y95.498 E0.01649
G1 X109.981 Y95.054 E0.01679
G1 X110.386 Y94.660 E0.01666
G1 X110.837 Y94.320 E0.01665
G1 X111.326 Y94.038 E0.01665
G1 X111.847 Y93.817 E0.01665
G1 X112.390 Y93.663 E0.01665
G1 X112.948 Y93.576 E0.01665
G1 X113.508 Y93.559 E0.01649
G1 X114.075 Y93.611 E0.01679
G1 X114.627 Y93.732 E0.01666
G1 X115.160 Y93.919 E0.01665
G1 X115.666 Y94.171 E0.01665
G1 X116.137 Y94.483 E0.01665
G1 X116.566 Y94.851 E0.01665
G1 X116.946 Y95.268 E0.01665
G1 X117.269 Y95.725 E0.01649
G1 X117.540 Y96.227 E0.01679
G1 X117.744 Y96.754 E0.01666
G1 X117.880 Y97.296 E0.01649
G1 X117.951 Y97.862 E0.01679
G1 X117.951 Y98.427 E0.01666
G1 X117.882 Y98.988 E0.01665
G1 X117.744 Y99.536 E0.01665
G1 X117.540 Y100.062 E0.01665
G1 X117.275 Y100.555 E0.01649
G1 X116.946 Y101.021 E0.01679
G1 X116.566 Y101.439 E0.01666
G1 X116.137 Y101.806 E0.01665
G1 X115.666 Y102.118 E0.01665
G1 X115.165 Y102.368 E0.01649
G1 X114.628 Y102.558 E0.01679
G1 X114.075 Y102.679 E0.01666
G1 X113.513 Y102.731 E0.01665
G1 X112.948 Y102.713 E0.01665
G1 X112.390 Y102.627 E0.01665
G1 X111.904 Y102.488 E0.01488
G1 X112.008 Y102.126 F10800.000
G1 F1200
G1 X111.495 Y101.914 E0.01635
G1 X111.046 Y101.654 E0.01528
G1 X110.632 Y101.342 E0.01528
G1 X110.260 Y100.981 E0.01528
G1 X109.935 Y100.577 E0.01528
G1 X109.662 Y100.137 E0.01528
G1 X109.445 Y99.666 E0.01528
G1 X109.288 Y99.172 E0.01528
G1 X109.193 Y98.662 E0.01528
G1 X109.161 Y98.145 E0.01528
G1 X109.193 Y97.627 E0.01528
G1 X109.287 Y97.123 E0.01513
G1 X109.445 Y96.624 E0.01542
G1 X109.662 Y96.153 E0.01528
G1 X109.932 Y95.716 E0.01513
G1 X110.260 Y95.308 E0.01542
G1 X110.632 Y94.947 E0.01528
G1 X111.046 Y94.635 E0.01528
G1 X111.495 Y94.376 E0.01528
G1 X111.972 Y94.174 E0.01528
G1 X112.471 Y94.032 E0.01528
G1 X112.983 Y93.952 E0.01528
G1 X113.496 Y93.936 E0.01513
G1 X114.017 Y93.984 E0.01542
G1 X114.524 Y94.095 E0.01528
G1 X115.013 Y94.267 E0.01528
G1 X115.477 Y94.498 E0.01528
G1 X115.909 Y94.785 E0.01528
G1 X116.303 Y95.122 E0.01528
G1 X116.652 Y95.505 E0.01528
G1 X116.948 Y95.924 E0.01513
G1 X117.197 Y96.385 E0.01542
G1 X117.384 Y96.868 E0.01528
G1 X117.509 Y97.366 E0.01513
G1 X117.574 Y97.885 E0.01542
G1 X117.574 Y98.404 E0.01528
G1 X117.510 Y98.918 E0.01528
G1 X117.384 Y99.421 E0.01528
G1 X117.197 Y99.904 E0.01528
G1 X116.954 Y100.357 E0.01513
G1 X116.652 Y100.784 E0.01542
G1 X116.303 Y101.167 E0.01528
G1 X115.909 Y101.505 E0.01528
G1 X115.477 Y101.791 E0.01528
G1 X115.017 Y102.020 E0.01513
G1 X114.524 Y102.194 E0.01542
G1 X114.017 Y102.305 E0.01528
G1 X113.501 Y102.353 E0.01528
G1 X112.983 Y102.337 E0.01528
G1 X112.471 Y102.258 E0.01528
G1 X112.065 Y102.142 E0.01243
G1 X111.705 Y102.388 F10800.000
G1 F8640
G1 X111.495 Y101.914 E-0.14189
G1 X111.046 Y101.654 E-0.11970
G1 X110.632 Y101.342 E-0.11970
G1 X110.260 Y100.981 E-0.11970
G1 X109.935 Y100.577 E-0.11970
G1 X109.662 Y100.137 E-0.11970
G1 X109.627 Y100.059 E-0.01962
G1 E-0.04000 F2100.00000
G1 Z0.800 F10800.000
G1 X121.898 Y115.014
G1 Z0.200
G1 E0.80000 F2100.00000
G1 F1200
G1 X122.349 Y114.674 E0.01665
G1 X122.838 Y114.391 E0.01665
G1 X123.358 Y114.171 E0.01665
G1 X123.901 Y114.017 E0.01665
G1 X124.460 Y113.930 E0.01665
G1 X125.019 Y113.913 E0.01649
G1 X125.586 Y113.965 E0.01679
G1 X126.139 Y114.086 E0.01666
G1 X126.671 Y114.273 E0.01665
G1 X127.177 Y114.525 E0.01665
G1 X127.648 Y114.837 E0.01665
G1 X128.077 Y115.205 E0.01665
G1 X128.458 Y115.622 E0.01665
G1 X128.781 Y116.079 E0.01649
G1 X129.051 Y116.581 E0.01679
G1 X129.255 Y117.108 E0.01666
G1 X129.393 Y117.656 E0.01665
G1 X129.462 Y118.216 E0.01665
G1 X129.462 Y118.781 E0.01665
G1 X129.393 Y119.342 E0.01665
G1 X129.255 Y119.890 E0.01665
G1 X129.051 Y120.416 E0.01665
G1 X128.784 Y120.914 E0.01665
G1 X128.458 Y121.375 E0.01665
G1 X128.077 Y121.793 E0.01665
G1 X127.648 Y122.160 E0.01665
G1 X127.177 Y122.472 E0.01665
G1 X126.671 Y122.724 E0.01665
G1 X126.139 Y122.912 E0.01665
G1 X125.587 Y123.033 E0.01665
G1 X125.024 Y123.085 E0.01665
G1 X124.460 Y123.067 E0.01665
G1 X123.901 Y122.981 E0.01665
G1 X123.358 Y122.826 E0.01665
G1 X122.838 Y122.606 E0.01665
G1 X122.349 Y122.323 E0.01665
G1 X121.898 Y121.983 E0.01665
G1 X121.492 Y121.590 E0.01665
G1 X121.138 Y121.150 E0.01665
G1 X120.841 Y120.669 E0.01665
G1 X120.607 Y120.161 E0.01649
G1 X120.433 Y119.618 E0.01679
G1 X120.330 Y119.062 E0.01666
G1 X120.295 Y118.499 E0.01665
G1 X120.330 Y117.935 E0.01665
G1 X120.433 Y117.379 E0.01665
G1 X120.605 Y116.841 E0.01665
G1 X120.841 Y116.328 E0.01665
G1 X121.135 Y115.852 E0.01649
G1 X121.492 Y115.408 E0.01679
G1 X121.855 Y115.056 E0.01489
G1 X122.117 Y115.327 F10800.000
G1 F1200
G1 X122.557 Y114.989 E0.01635
G1 X123.006 Y114.730 E0.01528
G1 X123.484 Y114.528 E0.01528
G1 X123.982 Y114.386 E0.01528
G1 X124.494 Y114.306 E0.01528
G1 X125.008 Y114.290 E0.01513
G1 X125.529 Y114.338 E0.01542
G1 X126.035 Y114.449 E0.01528
G1 X126.524 Y114.621 E0.01528
G1 X126.988 Y114.852 E0.01528
G1 X127.420 Y115.139 E0.01528
G1 X127.814 Y115.476 E0.01528
G1 X128.163 Y115.859 E0.01528
G1 X128.460 Y116.278 E0.01513
G1 X128.708 Y116.739 E0.01542
G1 X128.895 Y117.222 E0.01528
G1 X129.022 Y117.725 E0.01528
G1 X129.085 Y118.239 E0.01528
G1 X129.085 Y118.758 E0.01528
G1 X129.022 Y119.272 E0.01528
G1 X128.895 Y119.775 E0.01528
G1 X128.708 Y120.258 E0.01528
G1 X128.463 Y120.715 E0.01528
G1 X128.163 Y121.138 E0.01528
G1 X127.814 Y121.521 E0.01528
G1 X127.420 Y121.859 E0.01528
G1 X126.988 Y122.145 E0.01528
G1 X126.524 Y122.376 E0.01528
G1 X126.035 Y122.548 E0.01528
G1 X125.529 Y122.659 E0.01528
G1 X125.013 Y122.707 E0.01528
G1 X124.494 Y122.691 E0.01528
G1 X123.982 Y122.612 E0.01528
G1 X123.484 Y122.470 E0.01528
G1 X123.006 Y122.268 E0.01528
G1 X122.557 Y122.008 E0.01528
G1 X122.144 Y121.696 E0.01528
G1 X121.771 Y121.335 E0.01528
G1 X121.446 Y120.931 E0.01528
G1 X121.174 Y120.491 E0.01528
G1 X120.959 Y120.024 E0.01513
G1 X120.800 Y119.526 E0.01542
G1 X120.704 Y119.016 E0.01528
G1 X120.673 Y118.499 E0.01528
G1 X120.704 Y117.981 E0.01528
G1 X120.800 Y117.472 E0.01528
G1 X120.957 Y116.978 E0.01528
G1 X121.174 Y116.507 E0.01528
G1 X121.444 Y116.070 E0.01513
G1 X121.771 Y115.662 E0.01542
G1 X122.074 Y115.369 E0.01243
G1 X122.041 Y114.934 F10800.000
G1 F8640
G1 X122.557 Y114.989 E-0.14189
G1 X123.006 Y114.730 E-0.11970
G1 X123.484 Y114.528 E-0.11970
G1 X123.982 Y114.386 E-0.11970
G1 X124.494 Y114.306 E-0.11970
G1 X125.008 Y114.290 E-0.11853
G1 X125.097 Y114.299 E-0.02078
G1 E-0.04000 F2100.00000
G1 Z0.800 F10800.000
G1 X134.106 Y116.706
G1 Z0.200
G1 E0.80000 F2100.00000
G1 F1200
G1 X139.693 Y107.029 E0.32934
G1 X166.691 Y122.616 E0.91880
G1 X161.104 Y132.293 E0.32934
G1 X134.158 Y116.736 E0.91703
G1 X134.621 Y116.568 F10800.000
G1 F1200
G1 X139.831 Y107.544 E0.30711
G1 X166.176 Y122.754 E0.89657
G1 X160.966 Y131.778 E0.30711
G1 X134.673 Y116.598 E0.89480
G1 X134.255 Y116.407 F10800.000
G1 F8640
G1 X136.303 Y113.738 E-0.76000
G1 E-0.04000 F2100.00000
G1 Z0.800 F10800.000
G1 X136.331 Y102.921
G1 Z0.200
G1 E0.80000 F2100.00000
G1 F1200
G1 X135.773 Y102.834 E0.01665
G1 X135.229 Y102.680 E0.01665
G1 X134.709 Y102.460 E0.01665
G1 X134.220 Y102.177 E0.01665
G1 X133.769 Y101.837 E0.01665
G1 X133.364 Y101.444 E0.01665
G1 X133.009 Y101.003 E0.01665
G1 X132.712 Y100.523 E0.01665
G1 X132.476 Y100.010 E0.01665
G1 X132.305 Y99.472 E0.01665
G1 X132.201 Y98.916 E0.01665
G1 X132.166 Y98.353 E0.01665
G1 X132.201 Y97.789 E0.01665
G1 X132.304 Y97.239 E0.01649
G1 X132.476 Y96.695 E0.01679
G1 X132.712 Y96.182 E0.01666
G1 X133.007 Y95.706 E0.01649
G1 X133.363 Y95.262 E0.01679
G1 X133.769 Y94.868 E0.01666
G1 X134.220 Y94.528 E0.01665
G1 X134.709 Y94.245 E0.01665
G1 X135.229 Y94.025 E0.01665
G1 X135.773 Y93.871 E0.01665
G1 X136.331 Y93.784 E0.01665
G1 X136.890 Y93.767 E0.01649
G1 X137.458 Y93.819 E0.01679
G1 X138.010 Y93.939 E0.01666
G1 X138.543 Y94.127 E0.01665
G1 X139.048 Y94.379 E0.01665
G1 X139.519 Y94.691 E0.01665
G1 X139.948 Y95.059 E0.01665
G1 X140.329 Y95.476 E0.01665
G1 X140.655 Y95.937 E0.01665
G1 X140.922 Y96.435 E0.01665
G1 X141.127 Y96.962 E0.01665
G1 X141.264 Y97.509 E0.01665
G1 X141.334 Y98.070 E0.01665
G1 X141.334 Y98.635 E0.01665
G1 X141.264 Y99.196 E0.01665
G1 X141.127 Y99.743 E0.01665
G1 X140.922 Y100.270 E0.01665
G1 X140.655 Y100.768 E0.01665
G1 X140.329 Y101.229 E0.01665
G1 X139.948 Y101.646 E0.01665
G1 X139.519 Y102.014 E0.01665
G1 X139.053 Y102.323 E0.01649
G1 X138.543 Y102.578 E0.01679
G1 X138.010 Y102.766 E0.01666
G1 X137.458 Y102.886 E0.01665
G1 X136.896 Y102.939 E0.01665
G1 X136.391 Y102.923 E0.01488
G1 X136.402 Y102.546 F10800.000
G1 F1200
G1 X135.854 Y102.465 E0.01635
G1 X135.355 Y102.324 E0.01528
G1 X134.878 Y102.122 E0.01528
G1 X134.429 Y101.862 E0.01528
G1 X134.015 Y101.550 E0.01528
G1 X133.643 Y101.189 E0.01528
G1 X133.318 Y100.785 E0.01528
G1 X133.045 Y100.344 E0.01528
G1 X132.828 Y99.874 E0.01528
G1 X132.671 Y99.380 E0.01528
G1 X132.576 Y98.870 E0.01528
G1 X132.544 Y98.353 E0.01528
G1 X132.576 Y97.835 E0.01528
G1 X132.670 Y97.331 E0.01513
G1 X132.828 Y96.832 E0.01542
G1 X133.045 Y96.361 E0.01528
G1 X133.315 Y95.924 E0.01513
G1 X133.643 Y95.516 E0.01542
G1 X134.015 Y95.155 E0.01528
G1 X134.429 Y94.843 E0.01528
G1 X134.878 Y94.584 E0.01528
G1 X135.355 Y94.381 E0.01528
G1 X135.854 Y94.240 E0.01528
G1 X136.366 Y94.160 E0.01528
G1 X136.879 Y94.144 E0.01513
G1 X137.400 Y94.192 E0.01542
G1 X137.906 Y94.303 E0.01528
G1 X138.395 Y94.475 E0.01528
G1 X138.859 Y94.706 E0.01528
G1 X139.292 Y94.993 E0.01528
G1 X139.685 Y95.330 E0.01528
G1 X140.034 Y95.713 E0.01528
G1 X140.334 Y96.136 E0.01528
G1 X140.579 Y96.593 E0.01528
G1 X140.767 Y97.076 E0.01528
G1 X140.893 Y97.579 E0.01528
G1 X140.957 Y98.093 E0.01528
G1 X140.957 Y98.612 E0.01528
G1 X140.893 Y99.126 E0.01528
G1 X140.767 Y99.629 E0.01528
G1 X140.579 Y100.112 E0.01528
G1 X140.334 Y100.569 E0.01528
G1 X140.034 Y100.992 E0.01528
G1 X139.685 Y101.375 E0.01528
G1 X139.292 Y101.712 E0.01528
G1 X138.864 Y101.996 E0.01513
G1 X138.396 Y102.230 E0.01542
G1 X137.906 Y102.402 E0.01528
