; generated by PrusaSlicer 2.0.0+ on 2019-08-29 at 04:14:35

; 

; external perimeters extrusion width = 0.45mm
; perimeters extrusion width = 0.45mm
; infill extrusion width = 0.45mm
; solid infill extrusion width = 0.45mm
; top infill extrusion width = 0.40mm
; first layer extrusion width = 0.42mm

M73 P0 R190
M73 Q0 S191
M201 X1000 Y1000 Z1000 E5000 ; sets maximum accelerations, mm/sec^2
M203 X200 Y200 Z12 E120 ; sets maximum feedrates, mm/sec
M204 P1250 R1250 T1250 ; sets acceleration (P, T) and retract acceleration (R), mm/sec^2
M205 X8.00 Y8.00 Z0.40 E1.50 ; sets the jerk limits, mm/sec
M205 S0 T0 ; sets the minimum extruding and travel feed rate, mm/sec
M107
M115 U3.7.2 ; tell printer latest fw version
G90 ; use absolute coordinates
M83 ; extruder relative mode
M104 S230 ; set extruder temp
M140 S85 ; set bed temp
M190 S85 ; wait for bed temp
M109 S230 ; wait for extruder temp
G28 W ; home all without mesh bed level
G80 ; mesh bed leveling
G1 Y-3.0 F1000.0 ; go outside print area
G92 E0.0
G1 X60.0 E9.0 F1000.0 ; intro line
M73 Q0 S190
M73 P0 R190
G1 X100.0 E12.5 F1000.0 ; intro line
G92 E0.0
M221 S95
M900 K45 ; Filament gcode
G21 ; set units to millimeters
G90 ; use absolute coordinates
M83 ; use relative distances for extrusion
;BEFORE_LAYER_CHANGE
G92 E0.0
;0.2


G1 E-0.80000 F2100.00000
G1 Z0.600 F10800.000
;AFTER_LAYER_CHANGE
;0.2
G1 X81.091 Y68.372
G1 Z0.200
G1 E0.80000 F2100.00000
M204 S1000
G1 F1200
G1 X81.921 Y67.388 E0.03794
G1 X84.561 Y64.562 E0.11397
G1 X85.993 Y63.179 E0.05868
G1 X88.908 Y60.639 E0.11397
G1 X90.490 Y59.398 E0.05923
G1 X93.634 Y57.180 E0.11341
G1 X95.318 Y56.118 E0.05868
G1 X98.689 Y54.224 E0.11397
G1 X100.472 Y53.339 E0.05868
G1 X103.985 Y51.813 E0.11289
G1 X107.825 Y50.453 E0.12006
G1 X111.427 Y49.446 E0.11023
G1 X113.401 Y49.000 E0.05965
G1 X117.176 Y48.350 E0.11289
G1 X119.151 Y48.111 E0.05863
G1 X123.010 Y47.846 E0.11401
G1 X125.003 Y47.811 E0.05874
G1 X128.865 Y47.943 E0.11391
G1 X130.848 Y48.111 E0.05863
G1 X132.843 Y48.352 E0.05923
G1 X136.635 Y49.007 E0.11341
G1 X138.595 Y49.451 E0.05923
G1 X142.300 Y50.491 E0.11341
G1 X144.186 Y51.126 E0.05868
G1 X147.750 Y52.531 E0.11289
G1 X149.595 Y53.371 E0.05975
G1 X152.996 Y55.133 E0.11289
G1 X156.396 Y57.201 E0.11729
G1 X159.525 Y59.410 E0.11289
G1 X161.090 Y60.638 E0.05863
G1 X162.612 Y61.921 E0.05868
G1 X165.438 Y64.561 E0.11397
G1 X166.821 Y65.993 E0.05868
G1 X169.361 Y68.908 E0.11397
G1 X170.590 Y70.475 E0.05868
G1 X172.799 Y73.604 E0.11289
G1 X174.876 Y77.021 E0.11784
G1 X176.629 Y80.405 E0.11234
G1 X177.469 Y82.250 E0.05976
G1 X178.874 Y85.814 E0.11289
G1 X179.509 Y87.699 E0.05863
G1 X180.078 Y89.607 E0.05868
G1 X180.992 Y93.364 E0.11397
G1 X181.366 Y95.338 E0.05923
G1 X181.889 Y99.151 E0.11341
G1 X182.058 Y101.153 E0.05923
G1 X182.189 Y104.999 E0.11341
G1 X182.154 Y106.990 E0.05868
G1 X181.889 Y110.848 E0.11397
G1 X181.650 Y112.824 E0.05868
G1 X181.000 Y116.599 E0.11289
G1 X180.031 Y120.555 E0.12006
G1 X178.898 Y124.119 E0.11023
G1 X178.187 Y126.014 E0.05965
G1 X176.661 Y129.528 E0.11289
G1 X175.776 Y131.313 E0.05874
G1 X173.882 Y134.682 E0.11391
G1 X172.820 Y136.364 E0.05863
G1 X171.700 Y138.010 E0.05868
G1 X169.362 Y141.090 E0.11397
G1 X168.079 Y142.612 E0.05868
G1 X165.439 Y145.438 E0.11397
G1 X164.007 Y146.821 E0.05868
G1 X161.092 Y149.361 E0.11397
G1 X159.525 Y150.590 E0.05868
G1 X156.396 Y152.799 E0.11289
G1 X152.979 Y154.876 E0.11784
G1 X149.595 Y156.629 E0.11234
G1 X147.750 Y157.469 E0.05976
G1 X144.186 Y158.874 E0.11289
G1 X142.301 Y159.509 E0.05863
G1 X140.393 Y160.078 E0.05868
G1 X136.636 Y160.992 E0.11397
G1 X134.662 Y161.366 E0.05923
G1 X130.849 Y161.889 E0.11341
G1 X128.847 Y162.058 E0.05923
G1 X125.001 Y162.189 E0.11341
G1 X123.010 Y162.154 E0.05868
G1 X119.152 Y161.889 E0.11397
G1 X117.176 Y161.650 E0.05868
G1 X113.401 Y161.000 E0.11289
G1 X111.424 Y160.553 E0.05975
G1 X107.735 Y159.520 E0.11289
G1 X103.986 Y158.187 E0.11729
G1 X100.472 Y156.661 E0.11289
G1 X98.690 Y155.777 E0.05863
G1 X96.939 Y154.830 E0.05868
G1 X93.636 Y152.820 E0.11397
G1 X91.990 Y151.700 E0.05868
G1 X88.910 Y149.362 E0.11397
G1 X87.388 Y148.079 E0.05868
G1 X84.562 Y145.439 E0.11397
G1 X83.179 Y144.007 E0.05868
G1 X80.639 Y141.092 E0.11397
G1 X79.410 Y139.525 E0.05868
G1 X77.201 Y136.396 E0.11289
G1 X75.124 Y132.979 E0.11784
G1 X73.371 Y129.595 E0.11234
G1 X72.531 Y127.750 E0.05976
G1 X71.126 Y124.186 E0.11289
G1 X70.491 Y122.301 E0.05863
G1 X69.918 Y120.375 E0.05923
G1 X69.008 Y116.636 E0.11341
G1 X68.637 Y114.680 E0.05868
G1 X68.111 Y110.849 E0.11397
G1 X67.942 Y108.847 E0.05923
G1 X67.811 Y105.001 E0.11341
G1 X67.847 Y102.991 E0.05923
G1 X68.111 Y99.152 E0.11341
G1 X68.350 Y97.176 E0.05868
G1 X69.000 Y93.401 E0.11289
G1 X69.447 Y91.424 E0.05975
G1 X70.480 Y87.735 E0.11289
G1 X71.813 Y83.986 E0.11729
G1 X73.339 Y80.472 E0.11289
G1 X74.223 Y78.690 E0.05863
G1 X75.170 Y76.939 E0.05868
G1 X77.180 Y73.636 E0.11397
G1 X78.300 Y71.990 E0.05868
G1 X80.638 Y68.910 E0.11397
G1 X81.053 Y68.418 E0.01897
G1 F8640
G1 X81.921 Y67.388 E-0.31110
G1 X83.248 Y65.967 E-0.44890
G1 E-0.04000 F2100.00000
G1 Z0.800 F10800.000
G1 X139.690 Y107.029
G1 Z0.200
G1 E0.80000 F2100.00000
G1 F1200
G1 X166.687 Y122.616 E0.91880
G1 X161.100 Y132.293 E0.32934
G1 X134.102 Y116.706 E0.91880
G1 X139.660 Y107.081 E0.32757
G1 X139.828 Y107.544 F10800.000
G1 F1200
G1 X166.172 Y122.754 E0.89657
G1 X160.962 Y131.778 E0.30711
G1 X134.618 Y116.568 E0.89657
G1 X139.798 Y107.596 E0.30534
G1 X139.871 Y107.146 F10800.000
G1 F8640
G1 X142.651 Y109.236 E-0.76000
G1 E-0.04000 F2100.00000
G1 Z0.800 F10800.000
G1 X115.896 Y116.706
G1 Z0.200
G1 E0.80000 F2100.00000
G1 F1200
G1 X88.898 Y132.293 E0.91880
G1 X83.311 Y122.616 E0.32934
G1 X110.309 Y107.029 E0.91880
G1 X115.866 Y116.654 E0.32757
G1 X115.381 Y116.568 F10800.000
G1 F1200
G1 X89.036 Y131.778 E0.89657
G1 X83.826 Y122.754 E0.30711
G1 X110.171 Y107.544 E0.89657
G1 X115.351 Y116.516 E0.30534
G1 X115.703 Y116.805 F10800.000
G1 F8640
G1 X112.503 Y118.167 E-0.76000
G1 E-0.04000 F2100.00000
G1 Z0.800 F10800.000
G1 X119.412 Y91.261
G1 Z0.200
G1 E0.80000 F2100.00000
G1 F1200
G1 X119.412 Y60.087 E0.91880
G1 X130.586 Y60.087 E0.32934
G1 X130.586 Y91.261 E0.91880
G1 X119.472 Y91.261 E0.32757
G1 X119.789 Y90.884 F10800.000
G1 F1200
G1 X119.789 Y60.464 E0.89657
G1 X130.209 Y60.464 E0.30711
G1 X130.209 Y90.884 E0.89657
G1 X119.849 Y90.884 E0.30534
G1 X119.423 Y91.045 F10800.000
G1 F8640
G1 X119.843 Y87.593 E-0.76000
G1 E-0.04000 F2100.00000
G1 Z0.800 F10800.000
G1 X106.030 Y54.009
G1 Z0.200
G1 E0.80000 F2100.00000
G1 F1200
G1 X106.778 Y53.729 E0.02355
G1 X108.539 Y53.137 E0.05476
G1 X110.320 Y52.605 E0.05476
G1 X112.135 Y52.130 E0.05531
G1 X113.929 Y51.725 E0.05421
G1 X115.755 Y51.378 E0.05476
G1 X117.591 Y51.094 E0.05476
G1 X119.436 Y50.872 E0.05476
G1 X121.287 Y50.714 E0.05476
G1 X123.142 Y50.619 E0.05476
G1 X125.019 Y50.587 E0.05531
G1 X126.858 Y50.619 E0.05421
G1 X128.713 Y50.714 E0.05476
G1 X130.564 Y50.872 E0.05476
G1 X132.428 Y51.097 E0.05531
G1 X134.245 Y51.378 E0.05421
G1 X136.071 Y51.725 E0.05476
G1 X137.901 Y52.139 E0.05531
G1 X139.680 Y52.605 E0.05421
G1 X141.461 Y53.137 E0.05476
G1 X143.239 Y53.735 E0.05531
G1 X144.962 Y54.381 E0.05421
G1 X146.678 Y55.092 E0.05476
G1 X148.386 Y55.869 E0.05531
G1 X150.033 Y56.688 E0.05421
G1 X151.668 Y57.570 E0.05476
G1 X153.272 Y58.509 E0.05476
G1 X154.843 Y59.501 E0.05476
G1 X156.379 Y60.546 E0.05476
G1 X157.878 Y61.644 E0.05476
G1 X159.339 Y62.791 E0.05476
G1 X160.760 Y63.988 E0.05476
G1 X162.140 Y65.233 E0.05476
G1 X163.476 Y66.524 E0.05476
G1 X164.767 Y67.860 E0.05476
G1 X166.012 Y69.240 E0.05476
G1 X167.209 Y70.661 E0.05476
G1 X168.356 Y72.122 E0.05476
G1 X169.464 Y73.637 E0.05531
G1 X170.499 Y75.157 E0.05421
G1 X171.491 Y76.728 E0.05476
G1 X172.430 Y78.332 E0.05476
G1 X173.312 Y79.967 E0.05476
G1 X174.139 Y81.631 E0.05476
G1 X174.908 Y83.322 E0.05476
G1 X175.619 Y85.038 E0.05476
G1 X176.271 Y86.778 E0.05476
G1 X176.863 Y88.539 E0.05476
G1 X177.395 Y90.320 E0.05476
G1 X177.866 Y92.117 E0.05476
G1 X178.275 Y93.929 E0.05476
G1 X178.622 Y95.755 E0.05476
G1 X178.906 Y97.591 E0.05476
G1 X179.128 Y99.436 E0.05476
G1 X179.286 Y101.287 E0.05476
G1 X179.381 Y103.142 E0.05476
G1 X179.413 Y105.000 E0.05476
G1 X179.381 Y106.858 E0.05476
G1 X179.286 Y108.713 E0.05476
G1 X179.128 Y110.564 E0.05476
G1 X178.906 Y112.409 E0.05476
G1 X178.622 Y114.245 E0.05476
G1 X178.275 Y116.071 E0.05476
G1 X177.866 Y117.883 E0.05476
G1 X177.395 Y119.680 E0.05476
G1 X176.863 Y121.461 E0.05476
G1 X176.265 Y123.239 E0.05531
G1 X175.619 Y124.962 E0.05421
G1 X174.908 Y126.678 E0.05476
G1 X174.131 Y128.386 E0.05531
G1 X173.312 Y130.033 E0.05421
G1 X172.430 Y131.668 E0.05476
G1 X171.491 Y133.272 E0.05476
G1 X170.499 Y134.843 E0.05476
G1 X169.454 Y136.379 E0.05476
G1 X168.356 Y137.878 E0.05476
G1 X167.209 Y139.339 E0.05476
G1 X166.012 Y140.760 E0.05476
G1 X164.767 Y142.140 E0.05476
G1 X163.476 Y143.476 E0.05476
G1 X162.140 Y144.767 E0.05476
G1 X160.760 Y146.012 E0.05476
G1 X159.339 Y147.209 E0.05476
G1 X157.878 Y148.356 E0.05476
G1 X156.379 Y149.454 E0.05476
G1 X154.843 Y150.499 E0.05476
G1 X153.272 Y151.491 E0.05476
G1 X151.652 Y152.438 E0.05531
G1 X150.033 Y153.312 E0.05421
G1 X148.369 Y154.139 E0.05476
G1 X146.678 Y154.908 E0.05476
G1 X144.962 Y155.619 E0.05476
G1 X143.222 Y156.271 E0.05476
G1 X141.461 Y156.863 E0.05476
G1 X139.680 Y157.395 E0.05476
G1 X137.883 Y157.866 E0.05476
G1 X136.071 Y158.275 E0.05476
G1 X134.245 Y158.622 E0.05476
G1 X132.409 Y158.906 E0.05476
G1 X130.564 Y159.128 E0.05476
G1 X128.713 Y159.286 E0.05476
G1 X126.858 Y159.381 E0.05476
G1 X125.000 Y159.413 E0.05476
G1 X123.142 Y159.381 E0.05476
G1 X121.287 Y159.286 E0.05476
G1 X119.436 Y159.128 E0.05476
G1 X117.591 Y158.906 E0.05476
G1 X115.755 Y158.622 E0.05476
G1 X113.929 Y158.275 E0.05476
G1 X112.117 Y157.866 E0.05476
G1 X110.320 Y157.395 E0.05476
G1 X108.539 Y156.863 E0.05476
M73 Q0 S189
G1 X106.761 Y156.265 E0.05531
G1 X105.038 Y155.619 E0.05421
G1 X103.322 Y154.908 E0.05476
G1 X101.614 Y154.131 E0.05531
G1 X99.967 Y153.312 E0.05421
G1 X98.332 Y152.430 E0.05476
M73 P0 R189
G1 X96.712 Y151.481 E0.05531
G1 X95.157 Y150.499 E0.05421
G1 X93.621 Y149.454 E0.05476
G1 X92.122 Y148.356 E0.05476
G1 X90.661 Y147.209 E0.05476
G1 X89.240 Y146.012 E0.05476
G1 X87.860 Y144.767 E0.05476
G1 X86.524 Y143.476 E0.05476
G1 X85.233 Y142.140 E0.05476
G1 X83.988 Y140.760 E0.05476
G1 X82.791 Y139.339 E0.05476
G1 X81.644 Y137.878 E0.05476
G1 X80.546 Y136.379 E0.05476
G1 X79.501 Y134.843 E0.05476
G1 X78.509 Y133.272 E0.05476
G1 X77.562 Y131.652 E0.05531
G1 X76.688 Y130.033 E0.05421
G1 X75.861 Y128.369 E0.05476
G1 X75.092 Y126.678 E0.05476
G1 X74.381 Y124.962 E0.05476
G1 X73.729 Y123.222 E0.05476
G1 X73.137 Y121.461 E0.05476
G1 X72.605 Y119.680 E0.05476
G1 X72.134 Y117.883 E0.05476
G1 X71.725 Y116.071 E0.05476
G1 X71.378 Y114.245 E0.05476
G1 X71.094 Y112.409 E0.05476
G1 X70.872 Y110.565 E0.05476
G1 X70.713 Y108.695 E0.05531
G1 X70.619 Y106.858 E0.05421
G1 X70.587 Y105.000 E0.05476
G1 X70.619 Y103.142 E0.05476
G1 X70.714 Y101.287 E0.05476
G1 X70.872 Y99.436 E0.05476
G1 X71.097 Y97.572 E0.05531
G1 X71.378 Y95.755 E0.05421
G1 X71.725 Y93.929 E0.05476
G1 X72.139 Y92.099 E0.05531
G1 X72.605 Y90.320 E0.05421
G1 X73.137 Y88.539 E0.05476
G1 X73.729 Y86.778 E0.05476
G1 X74.388 Y85.021 E0.05531
G1 X75.092 Y83.322 E0.05421
G1 X75.861 Y81.631 E0.05476
G1 X76.688 Y79.967 E0.05476
G1 X77.570 Y78.332 E0.05476
G1 X78.509 Y76.728 E0.05476
G1 X79.501 Y75.157 E0.05476
G1 X80.546 Y73.621 E0.05476
G1 X81.644 Y72.122 E0.05476
G1 X82.791 Y70.661 E0.05476
G1 X84.001 Y69.226 E0.05531
G1 X85.233 Y67.860 E0.05421
G1 X86.524 Y66.524 E0.05476
G1 X87.860 Y65.233 E0.05476
G1 X89.240 Y63.988 E0.05476
G1 X90.661 Y62.791 E0.05476
G1 X92.122 Y61.644 E0.05476
G1 X93.621 Y60.546 E0.05476
G1 X95.157 Y59.501 E0.05476
G1 X96.744 Y58.499 E0.05531
G1 X98.332 Y57.570 E0.05421
G1 X99.966 Y56.688 E0.05476
G1 X101.648 Y55.853 E0.05531
G1 X103.322 Y55.092 E0.05421
G1 X105.038 Y54.381 E0.05476
G1 X105.974 Y54.030 E0.02945
G1 X105.842 Y53.677 F10800.000
G1 F1200
G1 X106.652 Y53.374 E0.02550
G1 X108.425 Y52.777 E0.05514
G1 X110.218 Y52.242 E0.05514
G1 X112.046 Y51.764 E0.05569
G1 X113.853 Y51.356 E0.05459
G1 X115.691 Y51.007 E0.05514
G1 X117.539 Y50.720 E0.05514
G1 X119.397 Y50.497 E0.05514
G1 X121.261 Y50.338 E0.05514
G1 X123.129 Y50.242 E0.05514
G1 X125.019 Y50.210 E0.05569
G1 X126.871 Y50.242 E0.05459
G1 X128.739 Y50.338 E0.05514
G1 X130.603 Y50.497 E0.05514
G1 X132.479 Y50.723 E0.05569
G1 X134.309 Y51.007 E0.05459
G1 X136.147 Y51.356 E0.05514
G1 X137.990 Y51.773 E0.05569
G1 X139.782 Y52.242 E0.05459
G1 X141.575 Y52.777 E0.05514
G1 X143.366 Y53.380 E0.05569
G1 X145.100 Y54.030 E0.05459
G1 X146.828 Y54.746 E0.05514
G1 X148.548 Y55.529 E0.05569
G1 X150.207 Y56.353 E0.05459
G1 X151.853 Y57.242 E0.05514
G1 X153.468 Y58.186 E0.05514
G1 X155.050 Y59.186 E0.05514
G1 X156.596 Y60.238 E0.05514
G1 X158.106 Y61.343 E0.05514
G1 X159.577 Y62.499 E0.05514
G1 X161.008 Y63.704 E0.05514
G1 X162.397 Y64.958 E0.05514
G1 X163.742 Y66.258 E0.05514
G1 X165.042 Y67.603 E0.05514
G1 X166.296 Y68.992 E0.05514
G1 X167.501 Y70.423 E0.05514
G1 X168.657 Y71.894 E0.05514
G1 X169.772 Y73.419 E0.05569
G1 X170.814 Y74.950 E0.05459
G1 X171.814 Y76.532 E0.05514
G1 X172.758 Y78.147 E0.05514
G1 X173.647 Y79.793 E0.05514
G1 X174.479 Y81.469 E0.05514
G1 X175.254 Y83.172 E0.05514
G1 X175.970 Y84.900 E0.05514
G1 X176.626 Y86.652 E0.05514
G1 X177.223 Y88.425 E0.05514
G1 X177.758 Y90.218 E0.05514
G1 X178.232 Y92.028 E0.05514
G1 X178.644 Y93.853 E0.05514
G1 X178.993 Y95.691 E0.05514
G1 X179.280 Y97.539 E0.05514
G1 X179.503 Y99.397 E0.05514
G1 X179.662 Y101.261 E0.05514
G1 X179.758 Y103.129 E0.05514
G1 X179.790 Y105.000 E0.05514
G1 X179.758 Y106.871 E0.05514
G1 X179.662 Y108.739 E0.05514
G1 X179.503 Y110.603 E0.05514
G1 X179.280 Y112.461 E0.05514
G1 X178.993 Y114.309 E0.05514
G1 X178.644 Y116.147 E0.05514
G1 X178.232 Y117.972 E0.05514
G1 X177.758 Y119.782 E0.05514
G1 X177.223 Y121.575 E0.05514
G1 X176.620 Y123.366 E0.05569
G1 X175.970 Y125.100 E0.05459
G1 X175.254 Y126.828 E0.05514
G1 X174.471 Y128.548 E0.05569
G1 X173.647 Y130.207 E0.05459
G1 X172.758 Y131.853 E0.05514
G1 X171.814 Y133.468 E0.05514
G1 X170.814 Y135.050 E0.05514
G1 X169.762 Y136.596 E0.05514
G1 X168.657 Y138.106 E0.05514
G1 X167.501 Y139.577 E0.05514
G1 X166.296 Y141.008 E0.05514
G1 X165.042 Y142.397 E0.05514
G1 X163.742 Y143.742 E0.05514
G1 X162.397 Y145.042 E0.05514
G1 X161.008 Y146.296 E0.05514
G1 X159.577 Y147.501 E0.05514
G1 X158.106 Y148.657 E0.05514
G1 X156.596 Y149.762 E0.05514
G1 X155.050 Y150.814 E0.05514
G1 X153.468 Y151.814 E0.05514
G1 X151.837 Y152.767 E0.05569
G1 X150.207 Y153.647 E0.05459
G1 X148.531 Y154.479 E0.05514
G1 X146.828 Y155.254 E0.05514
G1 X145.100 Y155.970 E0.05514
G1 X143.348 Y156.626 E0.05514
G1 X141.575 Y157.223 E0.05514
G1 X139.782 Y157.758 E0.05514
G1 X137.972 Y158.232 E0.05514
G1 X136.147 Y158.644 E0.05514
G1 X134.309 Y158.993 E0.05514
G1 X132.461 Y159.280 E0.05514
G1 X130.603 Y159.503 E0.05514
G1 X128.739 Y159.662 E0.05514
G1 X126.871 Y159.758 E0.05514
G1 X125.000 Y159.790 E0.05514
G1 X123.129 Y159.758 E0.05514
G1 X121.261 Y159.662 E0.05514
G1 X119.397 Y159.503 E0.05514
G1 X117.539 Y159.280 E0.05514
G1 X115.691 Y158.993 E0.05514
G1 X113.853 Y158.644 E0.05514
G1 X112.028 Y158.232 E0.05514
G1 X110.218 Y157.758 E0.05514
G1 X108.425 Y157.223 E0.05514
G1 X106.634 Y156.620 E0.05569
G1 X104.900 Y155.970 E0.05459
G1 X103.172 Y155.254 E0.05514
G1 X101.452 Y154.471 E0.05569
G1 X99.793 Y153.647 E0.05459
G1 X98.147 Y152.758 E0.05514
G1 X96.516 Y151.804 E0.05569
G1 X94.950 Y150.814 E0.05459
G1 X93.404 Y149.762 E0.05514
G1 X91.894 Y148.657 E0.05514
G1 X90.423 Y147.501 E0.05514
G1 X88.992 Y146.296 E0.05514
G1 X87.603 Y145.042 E0.05514
G1 X86.258 Y143.742 E0.05514
G1 X84.958 Y142.397 E0.05514
G1 X83.704 Y141.008 E0.05514
G1 X82.499 Y139.577 E0.05514
G1 X81.343 Y138.106 E0.05514
G1 X80.238 Y136.596 E0.05514
G1 X79.186 Y135.050 E0.05514
G1 X78.186 Y133.468 E0.05514
G1 X77.233 Y131.837 E0.05569
G1 X76.353 Y130.207 E0.05459
G1 X75.521 Y128.531 E0.05514
