; generated by PrusaSlicer 2.0.0+ on 2019-09-02 at 13:26:20

; 

; external perimeters extrusion width = 0.45mm
; perimeters extrusion width = 0.45mm
; infill extrusion width = 0.45mm
; solid infill extrusion width = 0.45mm
; top infill extrusion width = 0.40mm
; first layer extrusion width = 0.42mm

M73 P0 R11
M73 Q0 S11
M201 X1000 Y1000 Z1000 E5000 ; sets maximum accelerations, mm/sec^2
M203 X200 Y200 Z12 E120 ; sets maximum feedrates, mm/sec
M204 P1250 R1250 T1250 ; sets acceleration (P, T) and retract acceleration (R), mm/sec^2
M205 X8.00 Y8.00 Z0.40 E1.50 ; sets the jerk limits, mm/sec
M205 S0 T0 ; sets the minimum extruding and travel feed rate, mm/sec
M107
M115 U3.7.2 ; tell printer latest fw version
G90 ; use absolute coordinates
M83 ; extruder relative mode
M104 S230 ; set extruder temp
M140 S85 ; set bed temp
M190 S85 ; wait for bed temp
M109 S230 ; wait for extruder temp
G28 W ; home all without mesh bed level
G80 ; mesh bed leveling
G1 Y-3.0 F1000.0 ; go outside print area
G92 E0.0
G1 X60.0 E9.0 F1000.0 ; intro line
M73 Q0 S10
M73 P0 R10
G1 X100.0 E12.5 F1000.0 ; intro line
G92 E0.0
M221 S95
M900 K45 ; Filament gcode
G21 ; set units to millimeters
G90 ; use absolute coordinates
M83 ; use relative distances for extrusion
;BEFORE_LAYER_CHANGE
G92 E0.0
;0.2


G1 E-0.80000 F2100.00000
G1 Z0.600 F10800.000
;AFTER_LAYER_CHANGE
;0.2
G1 X119.322 Y99.447
G1 Z0.200
G1 E0.80000 F2100.00000
M204 S1000
G1 F900
G1 X120.586 Y98.397 E0.04845
G1 X121.880 Y97.696 E0.04337
G1 X123.488 Y97.203 E0.04957
G1 X124.965 Y97.057 E0.04374
G1 X126.626 Y97.226 E0.04920
G1 X128.029 Y97.657 E0.04324
G1 X129.326 Y98.339 E0.04321
G1 X130.633 Y99.400 E0.04961
G1 X131.569 Y100.536 E0.04337
G1 X132.360 Y102.015 E0.04945
G1 X132.784 Y103.424 E0.04337
G1 X132.942 Y105.056 E0.04833
G1 X132.797 Y106.516 E0.04324
G1 X132.385 Y107.923 E0.04321
G1 X131.624 Y109.382 E0.04849
G1 X130.681 Y110.550 E0.04424
G1 X129.414 Y111.603 E0.04858
G1 X128.124 Y112.303 E0.04324
G1 X126.516 Y112.796 E0.04957
G1 X125.052 Y112.943 E0.04337
G1 X123.378 Y112.775 E0.04957
G1 X121.975 Y112.344 E0.04324
G1 X120.676 Y111.662 E0.04324
G1 X119.370 Y110.603 E0.04957
G1 X118.431 Y109.464 E0.04349
G1 X117.640 Y107.985 E0.04945
G1 X117.216 Y106.580 E0.04324
G1 X117.058 Y104.944 E0.04845
G1 X117.203 Y103.488 E0.04312
G1 X117.615 Y102.077 E0.04333
G1 X118.376 Y100.618 E0.04849
G1 X119.284 Y99.494 E0.04259
G1 X119.576 Y99.729 F10800.000
G1 F900
G1 X120.800 Y98.707 E0.04701
G1 X122.028 Y98.043 E0.04116
G1 X123.565 Y97.572 E0.04738
G1 X124.967 Y97.435 E0.04150
G1 X126.554 Y97.596 E0.04703
G1 X127.885 Y98.006 E0.04104
G1 X129.116 Y98.653 E0.04100
G1 X130.366 Y99.666 E0.04741
G1 X131.254 Y100.743 E0.04116
G1 X132.013 Y102.161 E0.04738
G1 X132.414 Y103.494 E0.04104
G1 X132.565 Y105.059 E0.04633
G1 X132.426 Y106.444 E0.04104
G1 X132.036 Y107.780 E0.04100
G1 X131.309 Y109.175 E0.04637
G1 X130.415 Y110.283 E0.04197
G1 X129.203 Y111.290 E0.04645
G1 X127.979 Y111.954 E0.04104
G1 X126.443 Y112.426 E0.04738
G1 X125.053 Y112.565 E0.04116
G1 X123.450 Y112.405 E0.04749
G1 X122.119 Y111.996 E0.04104
G1 X120.886 Y111.349 E0.04104
G1 X119.637 Y110.337 E0.04738
G1 X118.746 Y109.257 E0.04127
G1 X117.987 Y107.839 E0.04738
G1 X117.586 Y106.506 E0.04104
G1 X117.435 Y104.941 E0.04633
G1 X117.574 Y103.556 E0.04104
G1 X117.964 Y102.220 E0.04100
G1 X118.693 Y100.822 E0.04648
G1 X119.538 Y99.776 E0.03963
G1 X119.830 Y100.011 F10800.000
G1 F900
G1 X121.011 Y99.020 E0.04545
G1 X122.173 Y98.391 E0.03895
G1 X123.638 Y97.942 E0.04517
G1 X124.968 Y97.812 E0.03938
G1 X126.482 Y97.966 E0.04485
G1 X127.741 Y98.355 E0.03884
G1 X128.907 Y98.966 E0.03879
G1 X130.099 Y99.932 E0.04523
G1 X130.941 Y100.953 E0.03900
G1 X131.663 Y102.303 E0.04512
G1 X132.044 Y103.565 E0.03884
G1 X132.188 Y105.061 E0.04431
G1 X132.057 Y106.369 E0.03874
G1 X131.687 Y107.636 E0.03890
G1 X130.992 Y108.971 E0.04437
G1 X130.146 Y110.019 E0.03970
G1 X128.989 Y110.980 E0.04431
G1 X127.831 Y111.608 E0.03884
G1 X126.365 Y112.057 E0.04517
G1 X125.050 Y112.188 E0.03895
G1 X123.522 Y112.035 E0.04528
G1 X122.262 Y111.647 E0.03884
G1 X121.093 Y111.034 E0.03890
G1 X119.904 Y110.070 E0.04512
G1 X119.059 Y109.047 E0.03911
G1 X118.337 Y107.697 E0.04512
G1 X117.956 Y106.435 E0.03884
G1 X117.812 Y104.939 E0.04431
G1 X117.943 Y103.631 E0.03874
G1 X118.313 Y102.364 E0.03890
G1 X119.008 Y101.029 E0.04437
G1 X119.792 Y100.058 E0.03678
G1 F8640
G1 X121.011 Y99.020 E-0.36965
G1 X122.173 Y98.391 E-0.30516
G1 X122.526 Y98.283 E-0.08520
G1 E-0.04000 F2100.00000
G1 Z0.800 F10800.000
G1 X121.983 Y102.068
G1 Z0.200
G1 E0.80000 F2100.00000
G1 F900
G1 X122.352 Y101.727 E0.01479
G1 X122.688 Y101.481 E0.01227
G1 X123.047 Y101.270 E0.01227
G1 X123.425 Y101.095 E0.01227
G1 X123.818 Y100.959 E0.01227
G1 X124.223 Y100.862 E0.01227
G1 X124.636 Y100.806 E0.01227
G1 X125.050 Y100.790 E0.01220
G1 X125.671 Y100.843 E0.01839
G1 X126.081 Y100.931 E0.01235
G1 X126.478 Y101.058 E0.01227
G1 X126.860 Y101.223 E0.01227
G1 X127.224 Y101.425 E0.01227
G1 X127.566 Y101.662 E0.01227
G1 X127.884 Y101.932 E0.01227
G1 X128.173 Y102.232 E0.01227
G1 X128.430 Y102.559 E0.01227
G1 X128.655 Y102.910 E0.01227
G1 X128.843 Y103.281 E0.01227
G1 X128.994 Y103.669 E0.01227
G1 X129.106 Y104.070 E0.01227
G1 X129.178 Y104.481 E0.01227
G1 X129.209 Y104.896 E0.01227
G1 X129.199 Y105.312 E0.01227
G1 X129.147 Y105.725 E0.01227
G1 X129.055 Y106.132 E0.01227
G1 X128.924 Y106.527 E0.01227
G1 X128.754 Y106.907 E0.01227
G1 X128.547 Y107.268 E0.01227
G1 X128.306 Y107.608 E0.01227
G1 X128.032 Y107.921 E0.01227
G1 X127.728 Y108.207 E0.01227
G1 X127.398 Y108.460 E0.01227
G1 X127.045 Y108.680 E0.01227
G1 X126.671 Y108.864 E0.01227
G1 X126.281 Y109.011 E0.01227
G1 X125.879 Y109.118 E0.01227
G1 X125.468 Y109.184 E0.01227
G1 X125.052 Y109.210 E0.01227
G1 X124.636 Y109.194 E0.01227
G1 X124.223 Y109.138 E0.01227
G1 X123.818 Y109.041 E0.01227
G1 X123.425 Y108.905 E0.01227
G1 X123.047 Y108.730 E0.01227
G1 X122.688 Y108.519 E0.01227
G1 X122.352 Y108.273 E0.01227
G1 X122.041 Y107.995 E0.01227
G1 X121.760 Y107.689 E0.01227
G1 X121.510 Y107.355 E0.01227
G1 X121.295 Y106.999 E0.01227
G1 X121.115 Y106.623 E0.01227
G1 X120.974 Y106.232 E0.01227
G1 X120.872 Y105.828 E0.01227
G1 X120.810 Y105.416 E0.01227
G1 X120.790 Y105.000 E0.01227
G1 X120.810 Y104.584 E0.01227
G1 X120.872 Y104.172 E0.01227
G1 X120.974 Y103.768 E0.01227
G1 X121.115 Y103.377 E0.01227
G1 X121.295 Y103.001 E0.01227
G1 X121.510 Y102.645 E0.01227
G1 X121.760 Y102.311 E0.01227
G1 X121.943 Y102.112 E0.00798
G1 X121.877 Y101.682 F10800.000
G1 X121.526 Y101.710
G1 F900
G1 X121.702 Y101.527 E0.00748
G1 X122.021 Y101.249 E0.01249
G1 X122.367 Y100.999 E0.01258
G1 X122.919 Y100.686 E0.01870
G1 X123.307 Y100.520 E0.01242
G1 X123.709 Y100.387 E0.01249
G1 X124.122 Y100.291 E0.01249
G1 X124.541 Y100.232 E0.01249
G1 X124.968 Y100.211 E0.01258
G1 X125.601 Y100.248 E0.01870
G1 X126.017 Y100.319 E0.01242
G1 X126.426 Y100.427 E0.01249
G1 X126.823 Y100.571 E0.01242
G1 X127.397 Y100.853 E0.01886
G1 X127.752 Y101.080 E0.01242
G1 X128.088 Y101.338 E0.01249
G1 X128.398 Y101.624 E0.01242
G1 X128.817 Y102.107 E0.01886
G1 X129.057 Y102.454 E0.01242
G1 X129.266 Y102.822 E0.01249
G1 X129.442 Y103.208 E0.01249
G1 X129.583 Y103.607 E0.01249
G1 X129.688 Y104.021 E0.01258
G1 X129.777 Y104.649 E0.01870
G1 X129.789 Y105.071 E0.01242
G1 X129.764 Y105.494 E0.01249
G1 X129.702 Y105.913 E0.01249
G1 X129.603 Y106.325 E0.01249
G1 X129.468 Y106.726 E0.01249
G1 X129.299 Y107.112 E0.01242
G1 X128.979 Y107.667 E0.01886
G1 X128.729 Y108.006 E0.01242
G1 X128.449 Y108.324 E0.01249
G1 X128.141 Y108.616 E0.01249
G1 X127.810 Y108.879 E0.01249
G1 X127.453 Y109.114 E0.01258
G1 X126.890 Y109.401 E0.01863
G1 X126.289 Y109.613 E0.01879
G1 X125.878 Y109.709 E0.01242
G1 X125.458 Y109.768 E0.01249
G1 X125.035 Y109.790 E0.01249
G1 X124.614 Y109.774 E0.01242
G1 X123.981 Y109.680 E0.01886
G1 X123.574 Y109.573 E0.01242
G1 X123.175 Y109.429 E0.01249
G1 X122.791 Y109.250 E0.01249
G1 X122.421 Y109.036 E0.01258
G1 X121.910 Y108.660 E0.01870
G1 X121.602 Y108.376 E0.01235
G1 X121.183 Y107.893 E0.01886
G1 X120.943 Y107.546 E0.01242
G1 X120.734 Y107.178 E0.01249
G1 X120.558 Y106.792 E0.01249
G1 X120.417 Y106.393 E0.01249
G1 X120.313 Y105.984 E0.01242
G1 X120.223 Y105.351 E0.01886
G1 X120.211 Y104.929 E0.01242
G1 X120.236 Y104.506 E0.01249
G1 X120.298 Y104.087 E0.01249
G1 X120.397 Y103.677 E0.01242
G1 X120.614 Y103.076 E0.01886
G1 X120.802 Y102.695 E0.01251
G1 X121.143 Y102.160 E0.01870
G1 X121.484 Y101.753 E0.01565
G1 X121.774 Y101.760 F10800.000
G1 X121.696 Y101.952
G1 F900
G1 X121.902 Y101.738 E0.00447
G1 X122.166 Y101.506 E0.00529
G1 X122.525 Y101.242 E0.00669
G1 X123.049 Y100.948 E0.00904
G1 X123.410 Y100.792 E0.00590
G1 X123.788 Y100.668 E0.00598
G1 X124.175 Y100.576 E0.00598
G1 X124.569 Y100.522 E0.00598
G1 X125.050 Y100.503 E0.00724
G1 X125.708 Y100.558 E0.00991
G1 X126.339 Y100.707 E0.00975
G1 X126.708 Y100.840 E0.00590
G1 X127.380 Y101.184 E0.01135
G1 X127.899 Y101.562 E0.00965
G1 X128.188 Y101.828 E0.00590
G1 X128.390 Y102.049 E0.00450
G1 X128.587 Y102.286 E0.00463
G1 X128.809 Y102.609 E0.00590
G1 X129.108 Y103.168 E0.00953
G1 X129.304 Y103.692 E0.00841
G1 X129.403 Y104.077 E0.00598
G1 X129.461 Y104.450 E0.00567
G1
G1 X129.497 Y104.894 E0.00695
G1 X129.485 Y105.338 E0.00695
G1 X129.430 Y105.780 E0.00695
G1 X129.332 Y106.214 E0.00695
G1 X129.197 Y106.622 E0.00671
G1 X129.039 Y106.981 E0.00613
G1 X128.786 Y107.427 E0.00800
G1 X128.529 Y107.790 E0.00695
G1 X128.240 Y108.123 E0.00688
G1 X127.919 Y108.423 E0.00686
G1 X127.566 Y108.694 E0.00695
G1 X127.188 Y108.928 E0.00695
G1 X126.775 Y109.134 E0.00720
G1 X126.364 Y109.284 E0.00684
G1 X125.934 Y109.400 E0.00695
G1 X125.431 Y109.478 E0.00795
G1 X125.051 Y109.499 E0.00594
G1 X124.641 Y109.485 E0.00640
G1 X124.175 Y109.420 E0.00734
G1 X123.733 Y109.316 E0.00710
G1 X123.321 Y109.174 E0.00679
G1 X122.925 Y108.993 E0.00681
G1 X122.581 Y108.793 E0.00621
G1 X122.167 Y108.493 E0.00797
G1 X121.842 Y108.204 E0.00679
G1 X121.538 Y107.867 E0.00710
G1 X121.269 Y107.512 E0.00695
G1 X121.039 Y107.131 E0.00695
G1 X120.847 Y106.730 E0.00695
G1 X120.695 Y106.311 E0.00695
G1 X120.598 Y105.928 E0.00618
G1 X120.525 Y105.439 E0.00771
G1 X120.501 Y104.995 E0.00695
G1
G1 X120.523 Y104.551 E0.00669
G1 X120.587 Y104.120 E0.00654
G1 X120.698 Y103.689 E0.00669
G1 X120.849 Y103.271 E0.00669
G1 X121.043 Y102.859 E0.00684
G1 X121.271 Y102.489 E0.00654
G1 X121.654 Y101.996 E0.00939
;BEFORE_LAYER_CHANGE
G92 E0.0
;0.4


G1 F8640
G1 X121.902 Y101.738 E-0.08250
G1 X122.166 Y101.506 E-0.08123
G1 X122.525 Y101.242 E-0.10275
G1 X123.049 Y100.948 E-0.13887
G1 X123.410 Y100.792 E-0.09062
G1 X123.788 Y100.668 E-0.09189
G1 X124.175 Y100.576 E-0.09186
G1 X124.519 Y100.529 E-0.08028
G1 E-0.04000 F2100.00000
G1 Z0.800 F10800.000
;AFTER_LAYER_CHANGE
;0.4
M140 S90 ; set bed temperature
G1 X123.488 Y97.203
G1 Z0.400
G1 E0.80000 F2100.00000
G1 F900
G1 X124.965 Y97.057 E0.04374
G1 X126.626 Y97.226 E0.04920
G1 X128.029 Y97.657 E0.04324
G1 X129.326 Y98.339 E0.04321
G1 X130.633 Y99.400 E0.04961
G1 X131.569 Y100.536 E0.04337
G1 X132.360 Y102.015 E0.04945
G1 X132.784 Y103.424 E0.04337
G1 X132.942 Y105.056 E0.04833
G1 X132.797 Y106.516 E0.04324
G1 X132.385 Y107.923 E0.04321
G1 X131.624 Y109.382 E0.04849
G1 X130.681 Y110.550 E0.04424
G1 X129.414 Y111.603 E0.04858
G1 X128.124 Y112.303 E0.04324
G1 X126.516 Y112.796 E0.04957
G1 X125.052 Y112.943 E0.04337
G1 X123.378 Y112.775 E0.04957
G1 X121.975 Y112.344 E0.04324
G1 X120.676 Y111.662 E0.04324
G1 X119.370 Y110.603 E0.04957
G1 X118.431 Y109.464 E0.04349
G1 X117.640 Y107.985 E0.04945
G1 X117.216 Y106.580 E0.04324
G1 X117.058 Y104.944 E0.04845
G1 X117.203 Y103.488 E0.04312
G1 X117.615 Y102.077 E0.04333
G1 X118.376 Y100.618 E0.04849
G1 X119.322 Y99.447 E0.04436
G1 X120.586 Y98.397 E0.04845
G1 X121.880 Y97.696 E0.04337
G1 X123.431 Y97.220 E0.04781
G1 F8640
G1 X124.965 Y97.057 E-0.35628
G1 X126.626 Y97.226 E-0.38545
G1 X126.702 Y97.249 E-0.01827
G1 E-0.04000 F2100.00000
G1 Z1.000 F10800.000
G1 X124.221 Y100.847
G1 Z0.400
G1 E0.80000 F2100.00000
M204 S800
G1 F900
G1 X124.635 Y100.791 E0.01329
G1 X125.040 Y100.775 E0.01291
G1 X125.673 Y100.829 E0.02023
G1 X126.085 Y100.916 E0.01339
G1 X126.483 Y101.044 E0.01330
G1 X126.867 Y101.210 E0.01330
G1 X127.232 Y101.412 E0.01330
G1 X127.576 Y101.651 E0.01330
G1 X127.894 Y101.921 E0.01330
G1 X128.184 Y102.222 E0.01330
G1 X128.443 Y102.550 E0.01330
G1 X128.668 Y102.902 E0.01330
G1 X128.857 Y103.275 E0.01330
G1 X129.009 Y103.665 E0.01330
G1 X129.121 Y104.067 E0.01330
G1 X129.193 Y104.479 E0.01330
G1 X129.224 Y104.895 E0.01330
G1 X129.214 Y105.313 E0.01330
G1 X129.162 Y105.728 E0.01330
G1 X129.070 Y106.136 E0.01330
G1 X128.938 Y106.532 E0.01330
G1 X128.767 Y106.914 E0.01330
G1 X128.560 Y107.276 E0.01330
G1 X128.317 Y107.617 E0.01330
G1 X128.043 Y107.932 E0.01330
G1 X127.738 Y108.218 E0.01330
G1 X127.407 Y108.473 E0.01330
G1 X127.052 Y108.694 E0.01330
G1 X126.677 Y108.878 E0.01330
G1 X126.286 Y109.025 E0.01330
G1 X125.882 Y109.132 E0.01330
G1 X125.469 Y109.199 E0.01330
G1 X125.052 Y109.225 E0.01330
G1 X124.635 Y109.209 E0.01330
G1 X124.221 Y109.153 E0.01330
G1 X123.814 Y109.055 E0.01330
G1 X123.419 Y108.918 E0.01330
G1 X123.040 Y108.743 E0.01330
G1 X122.680 Y108.531 E0.01330
G1 X122.342 Y108.285 E0.01330
G1 X122.031 Y108.006 E0.01330
G1 X121.748 Y107.698 E0.01330
G1 X121.498 Y107.364 E0.01330
G1 X121.281 Y107.006 E0.01330
G1 X121.101 Y106.629 E0.01330
G1 X120.960 Y106.236 E0.01330
G1 X120.857 Y105.831 E0.01330
G1 X120.795 Y105.417 E0.01330
G1 X120.775 Y105.000 E0.01330
G1 X120.795 Y104.583 E0.01330
G1 X120.857 Y104.169 E0.01330
G1 X120.960 Y103.764 E0.01330
G1 X121.101 Y103.371 E0.01330
G1 X121.281 Y102.994 E0.01330
G1 X121.498 Y102.636 E0.01330
G1 X121.748 Y102.302 E0.01330
G1 X122.031 Y101.994 E0.01330
G1 X122.342 Y101.715 E0.01330
G1 X122.680 Y101.469 E0.01330
G1 X123.040 Y101.257 E0.01330
G1 X123.419 Y101.082 E0.01330
G1 X123.814 Y100.945 E0.01330
G1 X124.162 Y100.861 E0.01139
M204 S1000
G1 X124.353 Y100.470 F10800.000
G1 X124.038 Y100.326
M204 S800
G1 F900
G1 X124.543 Y100.247 E0.01626
G1 X124.978 Y100.226 E0.01388
G1 X125.599 Y100.263 E0.01979
G1 X126.013 Y100.334 E0.01336
G1 X126.422 Y100.442 E0.01344
G1 X126.819 Y100.585 E0.01344
G1 X127.202 Y100.763 E0.01343
G1 X127.579 Y100.982 E0.01388
G1 X128.080 Y101.351 E0.01979
G1 X128.389 Y101.636 E0.01336
G1 X128.673 Y101.949 E0.01343
G1 X128.935 Y102.297 E0.01388
G1 X129.254 Y102.831 E0.01979
G1 X129.428 Y103.214 E0.01336
G1 X129.568 Y103.612 E0.01343
G1 X129.676 Y104.035 E0.01388
G1 X129.762 Y104.651 E0.01979
G1 X129.774 Y105.070 E0.01336
G1 X129.750 Y105.490 E0.01336
G1 X129.642 Y106.119 E0.02031
G1 X129.526 Y106.522 E0.01336
G1 X129.373 Y106.916 E0.01344
G1 X129.187 Y107.295 E0.01344
G1 X128.968 Y107.656 E0.01344
G1 X128.718 Y107.996 E0.01343
G1 X128.428 Y108.323 E0.01388
G1 X127.967 Y108.741 E0.01979
G1 X127.627 Y108.987 E0.01336
G1 X127.264 Y109.204 E0.01344
G1 X126.886 Y109.386 E0.01336
G1 X126.284 Y109.599 E0.02031
G1 X125.875 Y109.694 E0.01336
G1 X125.457 Y109.753 E0.01344
G1 X125.035 Y109.775 E0.01344
G1 X124.616 Y109.759 E0.01336
G1 X123.984 Y109.665 E0.02031
G1 X123.578 Y109.558 E0.01336
G1 X123.181 Y109.415 E0.01344
G1 X122.798 Y109.237 E0.01344
G1 X122.434 Y109.027 E0.01336
G1 X121.920 Y108.648 E0.02031
G1 X121.613 Y108.365 E0.01328
G1 X121.194 Y107.884 E0.02031
G1 X120.956 Y107.538 E0.01336
G1 X120.747 Y107.171 E0.01344
G1 X120.572 Y106.786 E0.01344
G1 X120.431 Y106.388 E0.01344
G1 X120.327 Y105.981 E0.01336
G1 X120.238 Y105.349 E0.02031
G1 X120.226 Y104.930 E0.01336
G1 X120.251 Y104.508 E0.01343
G1 X120.316 Y104.077 E0.01388
G1 X120.475 Y103.475 E0.01979
G1 X120.627 Y103.084 E0.01336
G1 X120.812 Y102.707 E0.01336
G1 X121.155 Y102.169 E0.02031
G1 X121.419 Y101.842 E0.01336
G1 X121.712 Y101.538 E0.01344
G1 X122.031 Y101.261 E0.01343
G1 X122.385 Y101.006 E0.01388
G1 X122.926 Y100.699 E0.01979
G1 X123.312 Y100.534 E0.01336
G1 X123.713 Y100.402 E0.01344
G1 X123.979 Y100.340 E0.00869
M204 S1000
G1 X124.302 Y100.627 F10800.000
G1 X124.042 Y100.607
G1 F900
G1 X124.569 Y100.522 E0.00548
